**kern	**silbe	**kern	**silbe	**kern	**silbe	**harmony	**phrase	**leadinstrument	**rhyme	**timestamp	**harte
*ICvox	*	*ICvox	*	*ICvox	*	*M4/4	*	*	*	*	*M4/4
*VRlead	*	*VRbacking*VRharmonize	*	*VRbacking	*	*	*	*	*	*	*
*Hstimme	*	*Nstimme	*	*Nstimme	*	*	*	*	*	*	*
*b-:	*	*b-:	*	*b-:	*	*b-:	*	*	*	*	*b-:
*M4/4	*	*M4/4	*	*M4/4	*	*	*	*	*	*	*
*clefF4	*	*clefG2	*	*clefF4	*	*	*	*	*	*	*
r;	.	r;	.	r;	.	1r;	.	r	.	0	N.C.
=1	=1	=1	=1	=1	=1	=1	=1	=1	=1	=1	=1
*>Letter>A	*>Letter>A	*>Letter>A	*>Letter>A	*>Letter>A	*>Letter>A	*>Letter>A	*>Letter>A	*>Letter>A	*>Letter>A	*>Letter>A	*>Letter>A
*>Label>Intro	*>Label>Intro	*>Label>Intro	*>Label>Intro	*>Label>Intro	*>Label>Intro	*>Label>Intro	*>Label>Intro	*>Label>Intro	*>Label>Intro	*>Label>Intro	*>Label>Intro
1r	.	1r	.	1r	.	1N	newline	synthesizer	.	0.209	N.C.
=2	=2	=2	=2	=2	=2	=2	=2	=2	=2	=2	=2
4r	.	8.d-	Ooh!	1r	.	2A-M	.	synthesizer	.	2.188	A-:1
.	.	16e-	_	.	.	.	.	.	.	.	.
8r	.	4r	.	.	.	.	.	.	.	.	.
[8C-	Yeah!	.	.	.	.	.	.	.	.	.	.
8C-]	_	2r	.	.	.	2B-m	.	.	.	3.177	B-:1
8r	.	.	.	.	.	.	.	.	.	.	.
4r	.	.	.	.	.	.	.	.	.	.	.
=3	=3	=3	=3	=3	=3	=3	=3	=3	=3	=3	=3
4r	.	1r	.	1r	.	2G-M	.	synthesizer	.	4.167	G-:1
8r	.	.	.	.	.	.	.	.	.	.	.
16BB-	Can	.	.	.	.	.	.	.	.	.	.
16BB-	you	.	.	.	.	.	.	.	.	.	.
16D	feel	.	.	.	.	2A-M	.	.	.	5.156	A-:1
16D	it,	.	.	.	.	.	.	.	.	.	.
16D	ba-	.	.	.	.	.	.	.	.	.	.
16D	-by?	.	.	.	.	.	.	.	.	.	.
4r	.	.	.	.	.	.	.	.	.	.	.
=4	=4	=4	=4	=4	=4	=4	=4	=4	=4	=4	=4
1r	.	8.d-	Ooh!	1r	.	2A-M	.	synthesizer	.	6.145	A-:1
.	.	16e-	_	.	.	.	.	.	.	.	.
.	.	4r	.	.	.	.	.	.	.	.	.
.	.	2r	.	.	.	2B-m	.	.	.	7.135	B-:1
=5	=5	=5	=5	=5	=5	=5	=5	=5	=5	=5	=5
4r	.	1r	.	1r	.	2G-M	.	synthesizer	.	8.124	G-:1
8r	.	.	.	.	.	.	.	.	.	.	.
8D	I	.	.	.	.	.	.	.	.	.	.
8C	can,	.	.	.	.	2A-M	.	.	.	9.114	A-:1
8AA-	too.	.	.	.	.	.	.	.	.	.	.
4r	.	.	.	.	.	.	.	.	.	.	.
=6	=6	=6	=6	=6	=6	=6	=6	=6	=6	=6	=6
1r	.	8.d-	Ooh!	8r	.	2A-M	newline	synthesizer	.	10.103	A-:1
.	.	.	.	[8AA-	Bom,	.	.	.	.	.	.
.	.	16e-	_	.	.	.	.	.	.	.	.
.	.	4r	.	16AA-]	_	.	.	.	.	.	.
.	.	.	.	8.AA-	bom,	.	.	.	.	.	.
.	.	2r	.	8.BB-	bom,	2B-m	.	.	.	11.088	B-:1
.	.	.	.	[16BB-	bom,	.	.	.	.	.	.
.	.	.	.	16BB-]	_	.	.	.	.	.	.
.	.	.	.	8.BB-	bom,	.	.	.	.	.	.
=7	=7	=7	=7	=7	=7	=7	=7	=7	=7	=7	=7
1r	.	1r	.	8r	.	2G-M	.	synthesizer	.	12.073	G-:1
.	.	.	.	[8GG-	bom,	.	.	.	.	.	.
.	.	.	.	16GG-]	_	.	.	.	.	.	.
.	.	.	.	8.GG-	bom,	.	.	.	.	.	.
.	.	.	.	8.AA-	bom,	2A-M	.	.	.	13.058	A-:1
.	.	.	.	[16AA-	bom,	.	.	.	.	.	.
.	.	.	.	16AA-]	_	.	.	.	.	.	.
.	.	.	.	8.AA-	bom.	.	.	.	.	.	.
=8	=8	=8	=8	=8	=8	=8	=8	=8	=8	=8	=8
1r	.	8.d-	Ooh!	8r	.	2A-M	.	synthesizer	.	14.044	A-:1
.	.	.	.	[8AA-	Bom,	.	.	.	.	.	.
.	.	16e-	_	.	.	.	.	.	.	.	.
.	.	4r	.	16AA-]	_	.	.	.	.	.	.
.	.	.	.	8.AA-	bom,	.	.	.	.	.	.
.	.	2r	.	8.BB-	bom,	2B-m	.	.	.	15.029	B-:1
.	.	.	.	[16BB-	bom,	.	.	.	.	.	.
.	.	.	.	16BB-]	_	.	.	.	.	.	.
.	.	.	.	8.BB-	bom,	.	.	.	.	.	.
=9	=9	=9	=9	=9	=9	=9	=9	=9	=9	=9	=9
1r	.	1r	.	8r	.	2G-M	.	synthesizer	.	16.014	G-:1
.	.	.	.	[8GG-	bom,	.	.	.	.	.	.
.	.	.	.	16GG-]	_	.	.	.	.	.	.
.	.	.	.	8.GG-	bom,	.	.	.	.	.	.
.	.	.	.	8.AA-	bom,	2A-M	.	.	.	16.999	A-:1
.	.	.	.	[16AA-	bom,	.	.	.	.	.	.
.	.	.	.	16AA-]	_	.	.	.	.	.	.
.	.	.	.	8.AA-	bom.	.	.	.	.	.	.
=10	=10	=10	=10	=10	=10	=10	=10	=10	=10	=10	=10
*>Letter>B	*>Letter>B	*>Letter>B	*>Letter>B	*>Letter>B	*>Letter>B	*>Letter>B	*>Letter>B	*>Letter>B	*>Letter>B	*>Letter>B	*>Letter>B
*>Label>Instrumental	*>Label>Instrumental	*>Label>Instrumental	*>Label>Instrumental	*>Label>Instrumental	*>Label>Instrumental	*>Label>Instrumental	*>Label>Instrumental	*>Label>Instrumental	*>Label>Instrumental	*>Label>Instrumental	*>Label>Instrumental
2r	.	8.d-	Ooh!	8r	.	2A-M	newline	synthesizer	.	17.984	A-:maj
.	.	.	.	[8AA-	Bom,	.	.	.	.	.	.
.	.	16e-	_	.	.	.	.	.	.	.	.
.	.	4r	.	16AA-]	_	.	.	.	.	.	.
.	.	.	.	8.AA-	bom,	.	.	.	.	.	.
16A-	Come	2r	.	8.BB-	bom,	2B-mm	.	.	.	18.974	B-:min7
8.C	on,	.	.	.	.	.	.	.	.	.	.
.	.	.	.	[16BB-	bom,	.	.	.	.	.	.
16F	swing	.	.	16BB-]	_	.	.	.	.	.	.
16F	it.	.	.	8.BB-	bom,	.	.	.	.	.	.
8r	.	.	.	.	.	.	.	.	.	.	.
=11	=11	=11	=11	=11	=11	=11	=11	=11	=11	=11	=11
4r	.	2r	.	8r	.	2G-M	.	synthesizer	.	19.964	G-:maj
.	.	.	.	[8GG-	bom,	.	.	.	.	.	.
8r	.	.	.	16GG-]	_	.	.	.	.	.	.
.	.	.	.	8.GG-	bom,	.	.	.	.	.	.
8A-	C-	.	.	.	.	.	.	.	.	.	.
16A-	-come	4r	.	8.AA-	bom,	2A-M	.	.	.	20.954	A-:maj
8.C	on,	.	.	.	.	.	.	.	.	.	.
.	.	.	.	[16AA-	bom,	.	.	.	.	.	.
8F	swing	8r	.	16AA-]	_	.	.	.	.	.	.
.	.	.	.	8.AA-	bom.	.	.	.	.	.	.
16F	it.	8d-	Ooh,	.	.	.	.	.	.	.	.
16r	.	.	.	.	.	.	.	.	.	.	.
=12	=12	=12	=12	=12	=12	=12	=12	=12	=12	=12	=12
2r	.	8.d-	Ooh!	8r	.	2A-M	.	synthesizer	.	21.944	A-:maj
.	.	.	.	[8AA-	Bom,	.	.	.	.	.	.
.	.	16e-	_	.	.	.	.	.	.	.	.
.	.	4r	.	16AA-]	_	.	.	.	.	.	.
.	.	.	.	8.AA-	bom,	.	.	.	.	.	.
16A-	Come	2r	.	8.BB-	bom,	2B-mm	.	.	.	22.933	B-:min7
8.C	on,	.	.	.	.	.	.	.	.	.	.
.	.	.	.	[16BB-	bom,	.	.	.	.	.	.
16F	swing	.	.	16BB-]	_	.	.	.	.	.	.
16F	it.	.	.	8.BB-	bom,	.	.	.	.	.	.
8r	.	.	.	.	.	.	.	.	.	.	.
=13	=13	=13	=13	=13	=13	=13	=13	=13	=13	=13	=13
4r	.	1r	.	8r	.	2G-M	.	synthesizer	.	23.923	G-:maj
.	.	.	.	[8GG-	bom,	.	.	.	.	.	.
8r	.	.	.	16GG-]	_	.	.	.	.	.	.
.	.	.	.	8.GG-	bom,	.	.	.	.	.	.
8A-	C-	.	.	.	.	.	.	.	.	.	.
16A-	-come	.	.	8.AA-	bom,	2A-M	.	.	.	24.913	A-:maj
8.C	on,	.	.	.	.	.	.	.	.	.	.
.	.	.	.	[16AA-	bom,	.	.	.	.	.	.
16F	swing	.	.	16AA-]	_	.	.	.	.	.	.
16F	it.	.	.	8.AA-	bom.	.	.	.	.	.	.
8r	.	.	.	.	.	.	.	.	.	.	.
=14	=14	=14	=14	=14	=14	=14	=14	=14	=14	=14	=14
8A-	One,	8.d-	Ooh!	8r	.	2A-M	newline	synthesizer	.	25.903	A-:maj
8r	.	.	.	[8AA-	Bom,	.	.	.	.	.	.
.	.	16e-	_	.	.	.	.	.	.	.	.
4r	.	4r	.	16AA-]	_	.	.	.	.	.	.
.	.	.	.	8.AA-	bom,	.	.	.	.	.	.
2r	.	2r	.	8.BB-	bom,	2B-mm	.	.	.	26.885	B-:min7
.	.	.	.	[16BB-	bom,	.	.	.	.	.	.
.	.	.	.	16BB-]	_	.	.	.	.	.	.
.	.	.	.	8.BB-	bom,	.	.	.	.	.	.
=15	=15	=15	=15	=15	=15	=15	=15	=15	=15	=15	=15
8A-	two,	2r	.	8r	.	2G-M	.	synthesizer	.	27.868	G-:maj
8r	.	.	.	[8GG-	bom,	.	.	.	.	.	.
4r	.	.	.	16GG-]	_	.	.	.	.	.	.
.	.	.	.	8.GG-	bom,	.	.	.	.	.	.
2r	.	4r	.	8.AA-	bom,	2A-M	.	.	.	28.85	A-:maj
.	.	.	.	[16AA-	bom,	.	.	.	.	.	.
.	.	8r	.	16AA-]	_	.	.	.	.	.	.
.	.	.	.	8.AA-	bom.	.	.	.	.	.	.
.	.	8d-	Ooh,	.	.	.	.	.	.	.	.
=16	=16	=16	=16	=16	=16	=16	=16	=16	=16	=16	=16
8A-	three,	8.d-	Ooh!	8r	.	2A-M	.	synthesizer	.	29.832	A-:maj
8r	.	.	.	[8AA-	Bom,	.	.	.	.	.	.
.	.	16e-	_	.	.	.	.	.	.	.	.
4r	.	4r	.	16AA-]	_	.	.	.	.	.	.
.	.	.	.	8.AA-	bom,	.	.	.	.	.	.
2r	.	2r	.	8.BB-	bom,	2B-mm	.	.	.	30.815	B-:min7
.	.	.	.	[16BB-	bom,	.	.	.	.	.	.
.	.	.	.	16BB-]	_	.	.	.	.	.	.
.	.	.	.	8.BB-	bom,	.	.	.	.	.	.
=17	=17	=17	=17	=17	=17	=17	=17	=17	=17	=17	=17
8D-	now	2r	.	8r	.	2G-M	.	synthesizer	.	31.797	G-:maj
16D-	we	.	.	[8GG-	bom,	.	.	.	.	.	.
[16D-	come	.	.	.	.	.	.	.	.	.	.
8D-]	_	.	.	16GG-]	_	.	.	.	.	.	.
.	.	.	.	8.GG-	bom,	.	.	.	.	.	.
16D-	to	.	.	.	.	.	.	.	.	.	.
16D-	the	.	.	.	.	.	.	.	.	.	.
16AA-	pay-	8r	.	8.AA-	bom,	2A-M	.	.	.	32.779	A-:maj
8.AA-	-off.	.	.	.	.	.	.	.	.	.	.
.	.	8a-	It's	.	.	.	.	.	.	.	.
.	.	.	.	[16AA-	bom,	.	.	.	.	.	.
4r	.	8b-	such	16AA-]	_	.	.	.	.	.	.
.	.	.	.	8.AA-	bom.	.	.	.	.	.	.
.	.	8dd-	a	.	.	.	.	.	.	.	.
=18	=18	=18	=18	=18	=18	=18	=18	=18	=18	=18	=18
*>Letter>B	*>Letter>B	*>Letter>B	*>Letter>B	*>Letter>B	*>Letter>B	*>Letter>B	*>Letter>B	*>Letter>B	*>Letter>B	*>Letter>B	*>Letter>B
*>Label>Chorus	*>Label>Chorus	*>Label>Chorus	*>Label>Chorus	*>Label>Chorus	*>Label>Chorus	*>Label>Chorus	*>Label>Chorus	*>Label>Chorus	*>Label>Chorus	*>Label>Chorus	*>Label>Chorus
1r	.	8r	.	8r	.	2A-M	newline	voice	.	33.762	A-:maj
.	.	8ff	good	[8AA-	Bom,	.	.	.	.	.	.
.	.	8r	.	16AA-]	_	.	.	.	.	.	.
.	.	.	.	8.AA-	bom,	.	.	.	.	.	.
.	.	8b-	vi-	.	.	.	.	.	.	.	.
.	.	8b-	-bra-	8.BB-	bom,	2B-mm	.	.	(A	34.746	B-:min7
.	.	8b-	-tion!	.	.	.	.	.	a)	.	.
.	.	.	.	[16BB-	bom,	.	.	.	.	.	.
.	.	8dd-	_	16BB-]	_	.	.	.	.	.	.
.	.	.	.	8.BB-	bom,	.	.	.	.	.	.
.	.	8r	.	.	.	.	.	.	.	.	.
=19	=19	=19	=19	=19	=19	=19	=19	=19	=19	=19	=19
1r	.	2r	.	8r	.	2G-M	.	voice	.	35.731	G-:maj
.	.	.	.	[8GG-	bom,	.	.	.	.	.	.
.	.	.	.	16GG-]	_	.	.	.	.	.	.
.	.	.	.	8.GG-	bom,	.	.	.	.	.	.
.	.	8r	.	8.AA-	bom,	2A-M	.	.	.	36.716	A-:maj
.	.	8a-	It's	.	.	.	.	.	.	.	.
.	.	.	.	[16AA-	bom,	.	.	.	.	.	.
.	.	8b-	such	16AA-]	_	.	.	.	.	.	.
.	.	.	.	8.AA-	bom.	.	.	.	.	.	.
.	.	8dd-	a	.	.	.	.	.	.	.	.
=20	=20	=20	=20	=20	=20	=20	=20	=20	=20	=20	=20
1r	.	8r	.	8r	.	2A-M	.	voice	.	37.7	A-:maj
.	.	[8ee	sweet	[8AA-	Bom,	.	.	.	.	.	.
.	.	8ee]	_	16AA-]	_	.	.	.	.	.	.
.	.	.	.	8.AA-	bom,	.	.	.	.	.	.
.	.	[8ee-	_	.	.	.	.	.	.	.	.
.	.	6ee-]	_	8.BB-	bom,	2B-mm	.	.	.	38.685	B-:min7
.	.	6dd-	sen-	.	.	.	.	.	.	.	.
.	.	.	.	[16BB-	bom,	.	.	.	.	.	.
.	.	.	.	16BB-]	_	.	.	.	.	.	.
.	.	.	.	8.BB-	bom,	.	.	.	.	.	.
.	.	6b-	-sa-	.	.	.	.	.	(A	.	.
=21	=21	=21	=21	=21	=21	=21	=21	=21	=21	=21	=21
1r	.	16b-	-tion!	8r	.	2G-M	.	voice	a)	39.67	G-:maj
.	.	16a-	_	.	.	.	.	.	.	.	.
.	.	16b-	_	[8GG-	bom,	.	.	.	.	.	.
.	.	[16dd-	_	.	.	.	.	.	.	.	.
.	.	8dd-]	_	16GG-]	_	.	.	.	.	.	.
.	.	.	.	8.GG-	bom,	.	.	.	.	.	.
.	.	8ee-	_	.	.	.	.	.	.	.	.
.	.	8r	.	8.AA-	bom,	2A-M	.	.	.	40.654	A-:maj
.	.	8a-	It's	.	.	.	.	.	.	.	.
.	.	.	.	[16AA-	bom,	.	.	.	.	.	.
.	.	8b-	such	16AA-]	_	.	.	.	.	.	.
.	.	.	.	8.AA-	bom.	.	.	.	.	.	.
.	.	8dd-	a	.	.	.	.	.	.	.	.
=22	=22	=22	=22	=22	=22	=22	=22	=22	=22	=22	=22
1r	.	8r	.	8r	.	2A-M	newline	voice	.	41.639	A-:maj
.	.	8ff	good	[8AA-	Bom,	.	.	.	.	.	.
.	.	8r	.	16AA-]	_	.	.	.	.	.	.
.	.	.	.	8.AA-	bom,	.	.	.	.	.	.
.	.	8b-	vi-	.	.	.	.	.	.	.	.
.	.	8b-	-bra-	8.BB-	bom,	2B-mm	.	.	(A	42.628	B-:min7
.	.	8b-	-tion!	.	.	.	.	.	a)	.	.
.	.	.	.	[16BB-	bom,	.	.	.	.	.	.
.	.	8dd-	_	16BB-]	_	.	.	.	.	.	.
.	.	.	.	8.BB-	bom,	.	.	.	.	.	.
.	.	8r	.	.	.	.	.	.	.	.	.
=23	=23	=23	=23	=23	=23	=23	=23	=23	=23	=23	=23
1r	.	2r	.	8r	.	2G-M	.	voice	.	43.617	G-:maj
.	.	.	.	[8GG-	bom,	.	.	.	.	.	.
.	.	.	.	16GG-]	_	.	.	.	.	.	.
.	.	.	.	8.GG-	bom,	.	.	.	.	.	.
.	.	8r	.	8.AA-	bom,	2A-M	.	.	.	44.606	A-:maj
.	.	8a-	It's	.	.	.	.	.	.	.	.
.	.	.	.	[16AA-	bom,	.	.	.	.	.	.
.	.	8b-	such	16AA-]	_	.	.	.	.	.	.
.	.	.	.	8.AA-	bom.	.	.	.	.	.	.
.	.	8dd-	a	.	.	.	.	.	.	.	.
=24	=24	=24	=24	=24	=24	=24	=24	=24	=24	=24	=24
1r	.	8r	.	8r	.	2A-M	.	voice	.	45.595	A-:maj
.	.	[8ee	sweet	[8AA-	Bom,	.	.	.	.	.	.
.	.	8ee]	_	16AA-]	_	.	.	.	.	.	.
.	.	.	.	8.AA-	bom,	.	.	.	.	.	.
.	.	[8ee-	_	.	.	.	.	.	.	.	.
.	.	6ee-]	_	8.BB-	bom,	2B-mm	.	.	.	46.584	B-:min7
.	.	6dd-	sen-	.	.	.	.	.	.	.	.
.	.	.	.	[16BB-	bom,	.	.	.	.	.	.
.	.	.	.	16BB-]	_	.	.	.	.	.	.
.	.	.	.	8.BB-	bom,	.	.	.	.	.	.
.	.	6b-	-sa-	.	.	.	.	.	(A	.	.
=25	=25	=25	=25	=25	=25	=25	=25	=25	=25	=25	=25
1r	.	16b-	-tion!	8r	.	2G-M	.	voice	a)	47.573	G-:maj
.	.	16a-	_	.	.	.	.	.	.	.	.
.	.	16b-	_	[8GG-	bom,	.	.	.	.	.	.
.	.	[16dd-	_	.	.	.	.	.	.	.	.
.	.	8dd-]	_	16GG-]	_	.	.	.	.	.	.
.	.	.	.	8.GG-	bom,	.	.	.	.	.	.
.	.	8ee-	_	.	.	.	.	.	.	.	.
.	.	2r	.	8.AA-	bom,	2A-M	.	.	.	48.562	A-:maj
.	.	.	.	[16AA-	bom,	.	.	.	.	.	.
.	.	.	.	16AA-]	_	.	.	.	.	.	.
.	.	.	.	8.AA-	bom.	.	.	.	.	.	.
=26	=26	=26	=26	=26	=26	=26	=26	=26	=26	=26	=26
*>Letter>A	*>Letter>A	*>Letter>A	*>Letter>A	*>Letter>A	*>Letter>A	*>Letter>A	*>Letter>A	*>Letter>A	*>Letter>A	*>Letter>A	*>Letter>A
*>Label>Verse	*>Label>Verse	*>Label>Verse	*>Label>Verse	*>Label>Verse	*>Label>Verse	*>Label>Verse	*>Label>Verse	*>Label>Verse	*>Label>Verse	*>Label>Verse	*>Label>Verse
8g-	Yo!	8.d-	Ooh!	1r	.	2A-M	newline	voice	.	49.551	A-:1
8r	.	.	.	.	.	.	.	.	.	.	.
.	.	16e-	_	.	.	.	.	.	.	.	.
8r	.	4r	.	.	.	.	.	.	.	.	.
16e-	It's	.	.	.	.	.	.	.	.	.	.
16d-	a-	.	.	.	.	.	.	.	.	.	.
16e-	-bout	2r	.	.	.	2B-m	.	.	.	50.537	B-:1
8e-	that	.	.	.	.	.	.	.	.	.	.
[16e-	time,	.	.	.	.	.	.	.	A	.	.
8e-]	_	.	.	.	.	.	.	.	.	.	.
16r	.	.	.	.	.	.	.	.	.	.	.
16d-	to	.	.	.	.	.	.	.	.	.	.
=27	=27	=27	=27	=27	=27	=27	=27	=27	=27	=27	=27
16g-	bring	1r	.	1r	.	2G-M	.	voice	.	51.524	G-:1
8r	.	.	.	.	.	.	.	.	.	.	.
16e-	forth	.	.	.	.	.	.	.	.	.	.
8.r	.	.	.	.	.	.	.	.	.	.	.
16f	the	.	.	.	.	.	.	.	.	.	.
16d-	rhy-	.	.	.	.	2A-M	.	.	.	52.511	A-:1
16B-	-thm	.	.	.	.	.	.	.	.	.	.
16d-	and	.	.	.	.	.	.	.	.	.	.
16e-	the	.	.	.	.	.	.	.	.	.	.
8e-	rhyme!	.	.	.	.	.	.	.	A	.	.
8r	.	.	.	.	.	.	.	.	.	.	.
=28	=28	=28	=28	=28	=28	=28	=28	=28	=28	=28	=28
16r	.	8.d-	Ooh!	1r	.	2A-M	.	voice	.	53.497	A-:1
8e-	I'm'ma	.	.	.	.	.	.	.	.	.	.
16c	_	16e-	_	.	.	.	.	.	.	.	.
8g-	get	4r	.	.	.	.	.	.	.	.	.
8f	mine,	.	.	.	.	.	.	.	A	.	.
16r	.	2r	.	.	.	2B-m	.	.	.	54.484	B-:1
16d-	so	.	.	.	.	.	.	.	.	.	.
8e-	get	.	.	.	.	.	.	.	.	.	.
8e-	yours!	.	.	.	.	.	.	.	B	.	.
8r	.	.	.	.	.	.	.	.	.	.	.
=29	=29	=29	=29	=29	=29	=29	=29	=29	=29	=29	=29
16r	.	1r	.	1r	.	2G-M	.	voice	.	55.471	G-:1
16e-	I	.	.	.	.	.	.	.	.	.	.
16e-	wan-	.	.	.	.	.	.	.	.	.	.
16c	-na	.	.	.	.	.	.	.	.	.	.
8f	see	.	.	.	.	.	.	.	.	.	.
8f	sweat	.	.	.	.	.	.	.	.	.	.
16d-	co-	.	.	.	.	2A-M	.	.	.	56.457	A-:1
16c	-min'	.	.	.	.	.	.	.	.	.	.
16B-	out	.	.	.	.	.	.	.	.	.	.
16d-	your	.	.	.	.	.	.	.	.	.	.
8e-	pores!	.	.	.	.	.	.	.	B	.	.
8r	.	.	.	.	.	.	.	.	.	.	.
=30	=30	=30	=30	=30	=30	=30	=30	=30	=30	=30	=30
8f	On	8.d-	Ooh!	1r	.	2A-M	newline	voice	.	57.444	A-:1
16f	the	.	.	.	.	.	.	.	.	.	.
[16f	house	16e-	_	.	.	.	.	.	.	.	.
16f]	_	4r	.	.	.	.	.	.	.	.	.
8d-	tip	.	.	.	.	.	.	.	C	.	.
16B-	is	.	.	.	.	.	.	.	.	.	.
16d-	how	2r	.	.	.	2B-m	.	.	.	58.432	B-:1
8d-	I'm	.	.	.	.	.	.	.	.	.	.
16e-	swing-	.	.	.	.	.	.	.	.	.	.
16B-	-in'	.	.	.	.	.	.	.	.	.	.
16F	this,	.	.	.	.	.	.	.	.	.	.
8r	.	.	.	.	.	.	.	.	.	.	.
=31	=31	=31	=31	=31	=31	=31	=31	=31	=31	=31	=31
8f	Strict-	1r	.	1r	.	2G-M	.	voice	.	59.421	G-:1
16f	-ly	.	.	.	.	.	.	.	.	.	.
16e-	hip	.	.	.	.	.	.	.	C	.	.
16r	.	.	.	.	.	.	.	.	.	.	.
8d-	hop,	.	.	.	.	.	.	.	.	.	.
16B-	boy,	.	.	.	.	.	.	.	.	.	.
8e	I	.	.	.	.	2A-M	.	.	.	60.409	A-:1
8e-	ain't	.	.	.	.	.	.	.	.	.	.
16d-	sing-	.	.	.	.	.	.	.	.	.	.
16B-	-in'	.	.	.	.	.	.	.	.	.	.
16F	this!	.	.	.	.	.	.	.	.	.	.
16r	.	.	.	.	.	.	.	.	.	.	.
=32	=32	=32	=32	=32	=32	=32	=32	=32	=32	=32	=32
16f	Bring-	8.d-	Ooh!	1r	.	2A-M	.	voice	.	61.398	A-:1
16F	-in'	.	.	.	.	.	.	.	.	.	.
16F	this	.	.	.	.	.	.	.	.	.	.
16r	.	16e-	_	.	.	.	.	.	.	.	.
16r	.	4r	.	.	.	.	.	.	.	.	.
16f	to	.	.	.	.	.	.	.	.	.	.
16f	the	.	.	.	.	.	.	.	.	.	.
16c	en-	.	.	.	.	.	.	.	.	.	.
16e-	-ti-	2r	.	.	.	2B-m	.	.	.	62.386	B-:1
8c	-re	.	.	.	.	.	.	.	.	.	.
[16g	na	.	.	.	.	.	.	.	(A	.	.
16g]	_	.	.	.	.	.	.	.	.	.	.
16f	tion,	.	.	.	.	.	.	.	a)	.	.
8r	.	.	.	.	.	.	.	.	.	.	.
=33	=33	=33	=33	=33	=33	=33	=33	=33	=33	=33	=33
16f	black,	1r	.	1r	.	2G-M	.	voice	.	63.374	G-:1
8r	.	.	.	.	.	.	.	.	.	.	.
16e-	white,	.	.	.	.	.	.	.	.	.	.
8r	.	.	.	.	.	.	.	.	.	.	.
16d-	brown,	.	.	.	.	.	.	.	.	.	.
16r	.	.	.	.	.	.	.	.	.	.	.
16r	.	.	.	.	.	2A-M	.	.	.	64.363	A-:1
8e-	red,	.	.	.	.	.	.	.	.	.	.
[16f	feel	.	.	.	.	.	.	.	.	.	.
16f]	_	.	.	.	.	.	.	.	.	.	.
16e-	the	.	.	.	.	.	.	.	.	.	.
8c	vi-	.	.	.	.	.	.	.	.	.	.
=34	=34	=34	=34	=34	=34	=34	=34	=34	=34	=34	=34
*>Letter>B	*>Letter>B	*>Letter>B	*>Letter>B	*>Letter>B	*>Letter>B	*>Letter>B	*>Letter>B	*>Letter>B	*>Letter>B	*>Letter>B	*>Letter>B
*>Label>Prechorus	*>Label>Prechorus	*>Label>Prechorus	*>Label>Prechorus	*>Label>Prechorus	*>Label>Prechorus	*>Label>Prechorus	*>Label>Prechorus	*>Label>Prechorus	*>Label>Prechorus	*>Label>Prechorus	*>Label>Prechorus
8B-	-bra-	1r	.	1r	.	2A-M	newline	voice	(A	65.351	A-:maj
8F	-tion!	.	.	.	.	.	.	.	a)	.	.
4r	.	.	.	.	.	.	.	.	.	.	.
16f	Come	.	.	.	.	2B-m	.	.	.	66.337	B-:min/b7
8c	on,	.	.	.	.	.	.	.	.	.	.
16g	come	.	.	.	.	.	.	.	.	.	.
[4f	on!	.	.	.	.	.	.	.	.	.	.
=35	=35	=35	=35	=35	=35	=35	=35	=35	=35	=35	=35
16f]	_	1r	.	1r	.	2G-M	.	voice	.	67.322	G-:maj
8.r	.	.	.	.	.	.	.	.	.	.	.
4r	.	.	.	.	.	.	.	.	.	.	.
8e-	Feel	.	.	.	.	2A-M	.	.	.	68.307	A-:maj
8c	it,	.	.	.	.	.	.	.	.	.	.
8e-	feel	.	.	.	.	.	.	.	.	.	.
8c	it!	.	.	.	.	.	.	.	.	.	.
=36	=36	=36	=36	=36	=36	=36	=36	=36	=36	=36	=36
2r	.	1r	.	1r	.	2A-M	.	voice	.	69.292	A-:maj
8.r	.	.	.	.	.	2B-m	.	.	.	70.277	B-:min/b7
[16f	Feel	.	.	.	.	.	.	.	.	.	.
16f]	_	.	.	.	.	.	.	.	.	.	.
16e-	the	.	.	.	.	.	.	.	.	.	.
8c	vi-	.	.	.	.	.	.	.	.	.	.
=37	=37	=37	=37	=37	=37	=37	=37	=37	=37	=37	=37
8e-	-bra-	2r	.	1r	.	2G-M	.	voice	(A	71.262	G-:maj
8F	-tion!	.	.	.	.	.	.	.	a)	.	.
4r	.	.	.	.	.	.	.	.	.	.	.
2r	.	8r	.	.	.	2A-M	.	.	.	72.248	A-:maj
.	.	8a-	It's	.	.	.	.	.	.	.	.
.	.	8b-	such	.	.	.	.	.	.	.	.
.	.	8dd-	a	.	.	.	.	.	.	.	.
=38	=38	=38	=38	=38	=38	=38	=38	=38	=38	=38	=38
*>Letter>B	*>Letter>B	*>Letter>B	*>Letter>B	*>Letter>B	*>Letter>B	*>Letter>B	*>Letter>B	*>Letter>B	*>Letter>B	*>Letter>B	*>Letter>B
*>Label>Chorus	*>Label>Chorus	*>Label>Chorus	*>Label>Chorus	*>Label>Chorus	*>Label>Chorus	*>Label>Chorus	*>Label>Chorus	*>Label>Chorus	*>Label>Chorus	*>Label>Chorus	*>Label>Chorus
1r	.	8r	.	8r	.	2A-M	newline	voice	.	73.233	A-:maj
.	.	8ff	good	[8AA-	Bom,	.	.	.	.	.	.
.	.	8r	.	16AA-]	_	.	.	.	.	.	.
.	.	.	.	8.AA-	bom,	.	.	.	.	.	.
.	.	8b-	vi-	.	.	.	.	.	.	.	.
.	.	8b-	-bra-	8.BB-	bom,	2B-mm	.	.	(A	74.221	B-:min7
.	.	8b-	-tion!	.	.	.	.	.	a)	.	.
.	.	.	.	[16BB-	bom,	.	.	.	.	.	.
.	.	8dd-	_	16BB-]	_	.	.	.	.	.	.
.	.	.	.	8.BB-	bom,	.	.	.	.	.	.
.	.	8r	.	.	.	.	.	.	.	.	.
=39	=39	=39	=39	=39	=39	=39	=39	=39	=39	=39	=39
1r	.	2r	.	8r	.	2G-M	.	voice	.	75.21	G-:maj
.	.	.	.	[8GG-	bom,	.	.	.	.	.	.
.	.	.	.	16GG-]	_	.	.	.	.	.	.
.	.	.	.	8.GG-	bom,	.	.	.	.	.	.
.	.	8r	.	8.AA-	bom,	2A-M	.	.	.	76.198	A-:maj
.	.	8a-	It's	.	.	.	.	.	.	.	.
.	.	.	.	[16AA-	bom,	.	.	.	.	.	.
.	.	8b-	such	16AA-]	_	.	.	.	.	.	.
.	.	.	.	8.AA-	bom.	.	.	.	.	.	.
.	.	8dd-	a	.	.	.	.	.	.	.	.
=40	=40	=40	=40	=40	=40	=40	=40	=40	=40	=40	=40
1r	.	8r	.	8r	.	2A-M	.	voice	.	77.187	A-:maj
.	.	[8ee	sweet	[8AA-	Bom,	.	.	.	.	.	.
.	.	8ee]	_	16AA-]	_	.	.	.	.	.	.
.	.	.	.	8.AA-	bom,	.	.	.	.	.	.
.	.	[8ee-	_	.	.	.	.	.	.	.	.
.	.	6ee-]	_	8.BB-	bom,	2B-mm	.	.	.	78.176	B-:min7
.	.	6dd-	sen-	.	.	.	.	.	.	.	.
.	.	.	.	[16BB-	bom,	.	.	.	.	.	.
.	.	.	.	16BB-]	_	.	.	.	.	.	.
.	.	.	.	8.BB-	bom,	.	.	.	.	.	.
.	.	6b-	-sa-	.	.	.	.	.	(A	.	.
=41	=41	=41	=41	=41	=41	=41	=41	=41	=41	=41	=41
1r	.	16b-	-tion!	8r	.	2G-M	.	voice	a)	79.164	G-:maj
.	.	16a-	_	.	.	.	.	.	.	.	.
.	.	16b-	_	[8GG-	bom,	.	.	.	.	.	.
.	.	[16dd-	_	.	.	.	.	.	.	.	.
.	.	8dd-]	_	16GG-]	_	.	.	.	.	.	.
.	.	.	.	8.GG-	bom,	.	.	.	.	.	.
.	.	8ee-	_	.	.	.	.	.	.	.	.
.	.	8r	.	8.AA-	bom,	2A-M	.	.	.	80.153	A-:maj
.	.	8a-	It's	.	.	.	.	.	.	.	.
.	.	.	.	[16AA-	bom,	.	.	.	.	.	.
.	.	8b-	such	16AA-]	_	.	.	.	.	.	.
.	.	.	.	8.AA-	bom.	.	.	.	.	.	.
.	.	8dd-	a	.	.	.	.	.	.	.	.
=42	=42	=42	=42	=42	=42	=42	=42	=42	=42	=42	=42
1r	.	8r	.	8r	.	2A-M	newline	voice	.	81.141	A-:maj
.	.	8ff	good	[8AA-	Bom,	.	.	.	.	.	.
.	.	8r	.	16AA-]	_	.	.	.	.	.	.
.	.	.	.	8.AA-	bom,	.	.	.	.	.	.
.	.	8b-	vi-	.	.	.	.	.	.	.	.
.	.	8b-	-bra-	8.BB-	bom,	2B-mm	.	.	.	82.125	B-:min7
.	.	8b-	-tion!	.	.	.	.	.	.	.	.
.	.	.	.	[16BB-	bom,	.	.	.	.	.	.
.	.	8dd-	_	16BB-]	_	.	.	.	.	.	.
.	.	.	.	8.BB-	bom,	.	.	.	.	.	.
.	.	8r	.	.	.	.	.	.	.	.	.
=43	=43	=43	=43	=43	=43	=43	=43	=43	=43	=43	=43
1r	.	2r	.	8r	.	2G-M	.	voice	.	83.109	G-:maj
.	.	.	.	[8GG-	bom,	.	.	.	.	.	.
.	.	.	.	16GG-]	_	.	.	.	.	.	.
.	.	.	.	8.GG-	bom,	.	.	.	.	.	.
.	.	8r	.	8.AA-	bom,	2A-M	.	.	.	84.092	A-:maj
.	.	8a-	It's	.	.	.	.	.	.	.	.
.	.	.	.	[16AA-	bom,	.	.	.	.	.	.
.	.	8b-	such	16AA-]	_	.	.	.	.	.	.
.	.	.	.	8.AA-	bom.	.	.	.	.	.	.
.	.	8dd-	a	.	.	.	.	.	.	.	.
=44	=44	=44	=44	=44	=44	=44	=44	=44	=44	=44	=44
1r	.	8r	.	8r	.	2A-M	.	voice	.	85.076	A-:maj
.	.	[8ee	sweet	[8AA-	Bom,	.	.	.	.	.	.
.	.	8ee]	_	16AA-]	_	.	.	.	.	.	.
.	.	.	.	8.AA-	bom,	.	.	.	.	.	.
.	.	[8ee-	_	.	.	.	.	.	.	.	.
.	.	6ee-]	_	8.BB-	bom,	2B-mm	.	.	.	86.06	B-:min7
.	.	6dd-	sen-	.	.	.	.	.	.	.	.
.	.	.	.	[16BB-	bom,	.	.	.	.	.	.
.	.	.	.	16BB-]	_	.	.	.	.	.	.
.	.	.	.	8.BB-	bom,	.	.	.	.	.	.
.	.	6b-	-sa-	.	.	.	.	.	.	.	.
=45	=45	=45	=45	=45	=45	=45	=45	=45	=45	=45	=45
1r	.	16b-	-tion!	8r	.	2G-M	.	voice	.	87.044	G-:maj
.	.	16a-	_	.	.	.	.	.	.	.	.
.	.	16b-	_	[8GG-	bom,	.	.	.	.	.	.
.	.	[16dd-	_	.	.	.	.	.	.	.	.
.	.	8dd-]	_	16GG-]	_	.	.	.	.	.	.
.	.	.	.	8.GG-	bom,	.	.	.	.	.	.
.	.	8ee-	_	.	.	.	.	.	.	.	.
.	.	2r	.	8.AA-	bom,	2A-M	.	.	.	88.027	A-:maj
.	.	.	.	[16AA-	bom,	.	.	.	.	.	.
.	.	.	.	16AA-]	_	.	.	.	.	.	.
.	.	.	.	8.AA-	bom.	.	.	.	.	.	.
=46	=46	=46	=46	=46	=46	=46	=46	=46	=46	=46	=46
*>Letter>A	*>Letter>A	*>Letter>A	*>Letter>A	*>Letter>A	*>Letter>A	*>Letter>A	*>Letter>A	*>Letter>A	*>Letter>A	*>Letter>A	*>Letter>A
*>Label>Verse	*>Label>Verse	*>Label>Verse	*>Label>Verse	*>Label>Verse	*>Label>Verse	*>Label>Verse	*>Label>Verse	*>Label>Verse	*>Label>Verse	*>Label>Verse	*>Label>Verse
16r	.	8.d-	Ooh!	1r	.	2A-M	newline	voice	.	89.011	A-:1
16d-	The	.	.	.	.	.	.	.	.	.	.
8f	vi-	.	.	.	.	.	.	.	.	.	.
.	.	16e-	_	.	.	.	.	.	.	.	.
8f	-bra-	4r	.	.	.	.	.	.	.	.	.
8B-	-tions,	.	.	.	.	.	.	.	.	.	.
8e-	good	2r	.	.	.	2B-m	.	.	.	90.002	B-:1
8d-	like	.	.	.	.	.	.	.	.	.	.
8.e-	Sun-	.	.	.	.	.	.	.	.	.	.
16B-	-kist,	.	.	.	.	.	.	.	D	.	.
=47	=47	=47	=47	=47	=47	=47	=47	=47	=47	=47	=47
4r	.	1r	.	1r	.	2G-M	.	voice	.	90.993	G-:1
16f	ma-	.	.	.	.	.	.	.	.	.	.
16c	-ny	.	.	.	.	.	.	.	.	.	.
16B-	wan-	.	.	.	.	.	.	.	.	.	.
16B-	-na	.	.	.	.	.	.	.	.	.	.
16c	know	.	.	.	.	2A-M	.	.	.	91.985	A-:1
8B-	who	.	.	.	.	.	.	.	.	.	.
[16e-	done	.	.	.	.	.	.	.	.	.	.
16e-]	_	.	.	.	.	.	.	.	.	.	.
8.c	this!	.	.	.	.	.	.	.	D	.	.
=48	=48	=48	=48	=48	=48	=48	=48	=48	=48	=48	=48
8r	.	8.d-	Ooh!	1r	.	2A-M	.	voice	.	92.976	A-:1
16f	Mar-	.	.	.	.	.	.	.	.	.	.
16e-	-ky	16e-	_	.	.	.	.	.	.	.	.
16f	Mark,	4r	.	.	.	.	.	.	.	.	.
8r	.	.	.	.	.	.	.	.	.	.	.
16c	and	.	.	.	.	.	.	.	.	.	.
16e-	I'm	2r	.	.	.	2B-m	.	.	.	93.967	B-:1
8f	here	.	.	.	.	.	.	.	.	.	.
16e-	to	.	.	.	.	.	.	.	.	.	.
8f	move	.	.	.	.	.	.	.	.	.	.
8c	you,	.	.	.	.	.	.	.	.	.	.
=49	=49	=49	=49	=49	=49	=49	=49	=49	=49	=49	=49
8d-	rhymes	1r	.	1r	.	2G-M	.	voice	.	94.958	G-:1
16c	will	.	.	.	.	.	.	.	.	.	.
[16f	groove	.	.	.	.	.	.	.	.	.	.
16f]	_	.	.	.	.	.	.	.	.	.	.
16B-	you.	.	.	.	.	.	.	.	.	.	.
16r	.	.	.	.	.	.	.	.	.	.	.
16B-	and	.	.	.	.	.	.	.	.	.	.
16d-	I'm	.	.	.	.	2A-M	.	.	.	95.95	A-:1
8e-	here	.	.	.	.	.	.	.	.	.	.
16d-	to	.	.	.	.	.	.	.	.	.	.
8f	prove	.	.	.	.	.	.	.	.	.	.
16B-	to	.	.	.	.	.	.	.	.	.	.
16B-	you,	.	.	.	.	.	.	.	.	.	.
=50	=50	=50	=50	=50	=50	=50	=50	=50	=50	=50	=50
16r	.	8.d-	Ooh!	1r	.	2A-M	newline	voice	.	96.941	A-:1
16f	that	.	.	.	.	.	.	.	.	.	.
16f	we	.	.	.	.	.	.	.	.	.	.
16f	can	16e-	_	.	.	.	.	.	.	.	.
16c	par-	4r	.	.	.	.	.	.	.	.	.
16c	-ty	.	.	.	.	.	.	.	.	.	.
16B-	on	.	.	.	.	.	.	.	.	.	.
16B-	the	.	.	.	.	.	.	.	.	.	.
16e-	po-	2r	.	.	.	2B-m	.	.	.	97.925	B-:1
16e-	-si-	.	.	.	.	.	.	.	.	.	.
16e-	-tive	.	.	.	.	.	.	.	.	.	.
[16e-	side	.	.	.	.	.	.	.	B	.	.
16e-]	_	.	.	.	.	.	.	.	.	.	.
16e-	and	.	.	.	.	.	.	.	.	.	.
8d-	pump	.	.	.	.	.	.	.	.	.	.
=51	=51	=51	=51	=51	=51	=51	=51	=51	=51	=51	=51
16e-	po-	1r	.	1r	.	2G-M	.	voice	.	98.909	G-:1
16e-	-si-	.	.	.	.	.	.	.	.	.	.
16e-	-tive	.	.	.	.	.	.	.	.	.	.
[16e-	vibes,	.	.	.	.	.	.	.	B	.	.
16e-]	_	.	.	.	.	.	.	.	.	.	.
16e-	so	.	.	.	.	.	.	.	.	.	.
16d-	come	.	.	.	.	.	.	.	.	.	.
16c	a-	.	.	.	.	.	.	.	.	.	.
8e-	-long	.	.	.	.	2A-M	.	.	.	99.894	A-:1
16f	for	.	.	.	.	.	.	.	.	.	.
16f	the	.	.	.	.	.	.	.	.	.	.
8e-	ride!	.	.	.	.	.	.	.	B	.	.
8r	.	.	.	.	.	.	.	.	.	.	.
=52	=52	=52	=52	=52	=52	=52	=52	=52	=52	=52	=52
16e-	Ma-	8.d-	Ooh!	1r	.	2A-M	.	voice	.	100.878	A-:1
16e-	-kin'	.	.	.	.	.	.	.	.	.	.
8d-	you	.	.	.	.	.	.	.	.	.	.
.	.	16e-	_	.	.	.	.	.	.	.	.
8f	feel	4r	.	.	.	.	.	.	.	.	.
16B-	the	.	.	.	.	.	.	.	.	.	.
16B-	rhy-	.	.	.	.	.	.	.	.	.	.
16B-	-thm	2r	.	.	.	2B-m	.	.	.	101.862	B-:1
16B-	is	.	.	.	.	.	.	.	.	.	.
8d-	my	.	.	.	.	.	.	.	.	.	.
8d-	oc-	.	.	.	.	.	.	.	.	.	.
8d-	-cu-	.	.	.	.	.	.	.	.	.	.
=53	=53	=53	=53	=53	=53	=53	=53	=53	=53	=53	=53
8.e-	-pa-	1r	.	1r	.	2G-M	.	voice	(A	102.846	G-:1
16B-	-tion,	.	.	.	.	.	.	.	a)	.	.
16r	.	.	.	.	.	.	.	.	.	.	.
8f	so	.	.	.	.	.	.	.	.	.	.
[16g-	feel	.	.	.	.	.	.	.	.	.	.
16g	_	.	.	.	.	2A-M	.	.	.	103.831	A-:1
16f	the	.	.	.	.	.	.	.	.	.	.
8d-	vi-	.	.	.	.	.	.	.	.	.	.
8d-	-bra-	.	.	.	.	.	.	.	(A	.	.
8B-	-tion!	.	.	.	.	.	.	.	a)	.	.
=54	=54	=54	=54	=54	=54	=54	=54	=54	=54	=54	=54
*>Letter>B	*>Letter>B	*>Letter>B	*>Letter>B	*>Letter>B	*>Letter>B	*>Letter>B	*>Letter>B	*>Letter>B	*>Letter>B	*>Letter>B	*>Letter>B
*>Label>Prechorus	*>Label>Prechorus	*>Label>Prechorus	*>Label>Prechorus	*>Label>Prechorus	*>Label>Prechorus	*>Label>Prechorus	*>Label>Prechorus	*>Label>Prechorus	*>Label>Prechorus	*>Label>Prechorus	*>Label>Prechorus
2r	.	1r	.	1r	.	2A-M	newline	voice	.	104.815	A-:maj
16f	Come	.	.	.	.	2B-m	.	.	.	105.804	B-:min/b7
8c	on,	.	.	.	.	.	.	.	.	.	.
16g	come	.	.	.	.	.	.	.	.	.	.
[4f	on!	.	.	.	.	.	.	.	.	.	.
=55	=55	=55	=55	=55	=55	=55	=55	=55	=55	=55	=55
16f]	_	1r	.	1r	.	2G-M	.	voice	.	106.793	G-:maj
8.r	.	.	.	.	.	.	.	.	.	.	.
4r	.	.	.	.	.	.	.	.	.	.	.
8e-	Feel	.	.	.	.	2A-M	.	.	.	107.782	A-:maj
8c	it,	.	.	.	.	.	.	.	.	.	.
8e-	feel	.	.	.	.	.	.	.	.	.	.
8c	it!	.	.	.	.	.	.	.	.	.	.
=56	=56	=56	=56	=56	=56	=56	=56	=56	=56	=56	=56
2r	.	1r	.	1r	.	2A-M	.	voice	.	108.771	A-:maj
8.r	.	.	.	.	.	2B-m	.	.	.	109.759	B-:min/b7
[16f	Feel	.	.	.	.	.	.	.	.	.	.
16f]	_	.	.	.	.	.	.	.	.	.	.
16e-	the	.	.	.	.	.	.	.	.	.	.
8c	vi-	.	.	.	.	.	.	.	.	.	.
=57	=57	=57	=57	=57	=57	=57	=57	=57	=57	=57	=57
8e-	-bra-	2r	.	1r	.	2G-M	.	voice	(A	110.748	G-:maj
8F	-tion!	.	.	.	.	.	.	.	a)	.	.
4r	.	.	.	.	.	.	.	.	.	.	.
2r	.	8r	.	.	.	2A-M	.	.	.	111.737	A-:maj
.	.	8a-	It's	.	.	.	.	.	.	.	.
.	.	8b-	such	.	.	.	.	.	.	.	.
.	.	8dd-	a	.	.	.	.	.	.	.	.
=58	=58	=58	=58	=58	=58	=58	=58	=58	=58	=58	=58
*>Letter>B	*>Letter>B	*>Letter>B	*>Letter>B	*>Letter>B	*>Letter>B	*>Letter>B	*>Letter>B	*>Letter>B	*>Letter>B	*>Letter>B	*>Letter>B
*>Label>Chorus	*>Label>Chorus	*>Label>Chorus	*>Label>Chorus	*>Label>Chorus	*>Label>Chorus	*>Label>Chorus	*>Label>Chorus	*>Label>Chorus	*>Label>Chorus	*>Label>Chorus	*>Label>Chorus
1r	.	8r	.	8r	.	2A-M	newline	voice	.	112.726	A-:maj
.	.	8ff	good	[8AA-	Bom,	.	.	.	.	.	.
.	.	8r	.	16AA-]	_	.	.	.	.	.	.
.	.	.	.	8.AA-	bom,	.	.	.	.	.	.
.	.	8b-	vi-	.	.	.	.	.	.	.	.
.	.	8b-	-bra-	8.BB-	bom,	2B-mm	.	.	(A	113.71	B-:min7
.	.	8b-	-tion!	.	.	.	.	.	a)	.	.
.	.	.	.	[16BB-	bom,	.	.	.	.	.	.
.	.	8dd-	_	16BB-]	_	.	.	.	.	.	.
.	.	.	.	8.BB-	bom,	.	.	.	.	.	.
.	.	8r	.	.	.	.	.	.	.	.	.
=59	=59	=59	=59	=59	=59	=59	=59	=59	=59	=59	=59
1r	.	2r	.	8r	.	2G-M	.	voice	.	114.693	G-:maj
.	.	.	.	[8GG-	bom,	.	.	.	.	.	.
.	.	.	.	16GG-]	_	.	.	.	.	.	.
.	.	.	.	8.GG-	bom,	.	.	.	.	.	.
.	.	8r	.	8.AA-	bom,	2A-M	.	.	.	115.676	A-:maj
.	.	8a-	It's	.	.	.	.	.	.	.	.
.	.	.	.	[16AA-	bom,	.	.	.	.	.	.
.	.	8b-	such	16AA-]	_	.	.	.	.	.	.
.	.	.	.	8.AA-	bom.	.	.	.	.	.	.
.	.	8dd-	a	.	.	.	.	.	.	.	.
=60	=60	=60	=60	=60	=60	=60	=60	=60	=60	=60	=60
1r	.	8r	.	8r	.	2A-M	.	voice	.	116.66	A-:maj
.	.	[8ee	sweet	[8AA-	Bom,	.	.	.	.	.	.
.	.	8ee]	_	16AA-]	_	.	.	.	.	.	.
.	.	.	.	8.AA-	bom,	.	.	.	.	.	.
.	.	[8ee-	_	.	.	.	.	.	.	.	.
.	.	6ee-]	_	8.BB-	bom,	2B-mm	.	.	.	117.643	B-:min7
.	.	6dd-	sen-	.	.	.	.	.	.	.	.
.	.	.	.	[16BB-	bom,	.	.	.	.	.	.
.	.	.	.	16BB-]	_	.	.	.	.	.	.
.	.	.	.	8.BB-	bom,	.	.	.	.	.	.
.	.	6b-	-sa-	.	.	.	.	.	(A	.	.
=61	=61	=61	=61	=61	=61	=61	=61	=61	=61	=61	=61
1r	.	16b-	-tion!	8r	.	2G-M	.	voice	a)	118.627	G-:maj
.	.	16a-	_	.	.	.	.	.	.	.	.
.	.	16b-	_	[8GG-	bom,	.	.	.	.	.	.
.	.	[16dd-	_	.	.	.	.	.	.	.	.
.	.	8dd-]	_	16GG-]	_	.	.	.	.	.	.
.	.	.	.	8.GG-	bom,	.	.	.	.	.	.
.	.	8ee-	_	.	.	.	.	.	.	.	.
.	.	8r	.	8.AA-	bom,	2A-M	.	.	.	119.61	A-:maj
.	.	8a-	It's	.	.	.	.	.	.	.	.
.	.	.	.	[16AA-	bom,	.	.	.	.	.	.
.	.	8b-	such	16AA-]	_	.	.	.	.	.	.
.	.	.	.	8.AA-	bom.	.	.	.	.	.	.
.	.	8dd-	a	.	.	.	.	.	.	.	.
=62	=62	=62	=62	=62	=62	=62	=62	=62	=62	=62	=62
1r	.	8r	.	8r	.	2A-M	newline	voice	.	120.594	A-:maj
.	.	8ff	good	[8AA-	Bom,	.	.	.	.	.	.
.	.	8r	.	16AA-]	_	.	.	.	.	.	.
.	.	.	.	8.AA-	bom,	.	.	.	.	.	.
.	.	8b-	vi-	.	.	.	.	.	.	.	.
.	.	8b-	-bra-	8.BB-	bom,	2B-mm	.	.	.	121.579	B-:min7
.	.	8b-	-tion!	.	.	.	.	.	.	.	.
.	.	.	.	[16BB-	bom,	.	.	.	.	.	.
.	.	8dd-	_	16BB-]	_	.	.	.	.	.	.
.	.	.	.	8.BB-	bom,	.	.	.	.	.	.
.	.	8r	.	.	.	.	.	.	.	.	.
=63	=63	=63	=63	=63	=63	=63	=63	=63	=63	=63	=63
1r	.	2r	.	8r	.	2G-M	.	voice	.	122.564	G-:maj
.	.	.	.	[8GG-	bom,	.	.	.	.	.	.
.	.	.	.	16GG-]	_	.	.	.	.	.	.
.	.	.	.	8.GG-	bom,	.	.	.	.	.	.
.	.	8r	.	8.AA-	bom,	2A-M	.	.	.	123.55	A-:maj
.	.	8a-	It's	.	.	.	.	.	.	.	.
.	.	.	.	[16AA-	bom,	.	.	.	.	.	.
.	.	8b-	such	16AA-]	_	.	.	.	.	.	.
.	.	.	.	8.AA-	bom.	.	.	.	.	.	.
.	.	8dd-	a	.	.	.	.	.	.	.	.
=64	=64	=64	=64	=64	=64	=64	=64	=64	=64	=64	=64
1r	.	8r	.	8r	.	2A-M	.	voice	.	124.535	A-:maj
.	.	[8ee	sweet	[8AA-	Bom,	.	.	.	.	.	.
.	.	8ee]	_	16AA-]	_	.	.	.	.	.	.
.	.	.	.	8.AA-	bom,	.	.	.	.	.	.
.	.	[8ee-	_	.	.	.	.	.	.	.	.
.	.	6ee-]	_	8.BB-	bom,	2B-mm	.	.	.	125.52	B-:min7
.	.	6dd-	sen-	.	.	.	.	.	.	.	.
.	.	.	.	[16BB-	bom,	.	.	.	.	.	.
.	.	.	.	16BB-]	_	.	.	.	.	.	.
.	.	.	.	8.BB-	bom,	.	.	.	.	.	.
.	.	6b-	-sa-	.	.	.	.	.	.	.	.
=65	=65	=65	=65	=65	=65	=65	=65	=65	=65	=65	=65
4r	.	16b-	-tion!	8r	.	2G-M	.	voice	.	126.505	G-:maj
.	.	16a-	_	.	.	.	.	.	.	.	.
.	.	16b-	_	[8GG-	bom,	.	.	.	.	.	.
.	.	[16dd-	_	.	.	.	.	.	.	.	.
8r	.	8dd-]	_	16GG-]	_	.	.	.	.	.	.
.	.	.	.	8.GG-	bom,	.	.	.	.	.	.
16e-	Don-	8ee-	_	.	.	.	.	.	.	.	.
16e-	-nie	.	.	.	.	.	.	.	.	.	.
8e-	D,	2r	.	8.AA-	bom,	2A-M	.	.	.	127.491	A-:maj
16g-]	break	.	.	.	.	.	.	.	.	.	.
16d-	it	.	.	[16AA-	bom,	.	.	.	.	.	.
8e-	down!	.	.	16AA-]	_	.	.	.	.	.	.
.	.	.	.	8.AA-	bom.	.	.	.	.	.	.
8r	.	.	.	.	.	.	.	.	.	.	.
=66	=66	=66	=66	=66	=66	=66	=66	=66	=66	=66	=66
*>Letter>C	*>Letter>C	*>Letter>C	*>Letter>C	*>Letter>C	*>Letter>C	*>Letter>C	*>Letter>C	*>Letter>C	*>Letter>C	*>Letter>C	*>Letter>C
*>Label>Bridge	*>Label>Bridge	*>Label>Bridge	*>Label>Bridge	*>Label>Bridge	*>Label>Bridge	*>Label>Bridge	*>Label>Bridge	*>Label>Bridge	*>Label>Bridge	*>Label>Bridge	*>Label>Bridge
1r	.	1r	.	1r	.	1N	newline	drums	.	128.476	N.C.
=67	=67	=67	=67	=67	=67	=67	=67	=67	=67	=67	=67
1r	.	1r	.	1r	.	1N	.	drums	.	129.464	N.C.
=68	=68	=68	=68	=68	=68	=68	=68	=68	=68	=68	=68
1r	.	1r	.	1r	.	1N	.	drums	.	130.452	N.C.
=69	=69	=69	=69	=69	=69	=69	=69	=69	=69	=69	=69
1r	.	1r	.	1r	.	1N	.	drums	.	131.44	N.C.
=70	=70	=70	=70	=70	=70	=70	=70	=70	=70	=70	=70
1r	.	1r	.	1r	.	1N	newline	drums	.	136.379	N.C.
=71	=71	=71	=71	=71	=71	=71	=71	=71	=71	=71	=71
1r	.	1r	.	1r	.	1N	.	drums	.	137.364	N.C.
=72	=72	=72	=72	=72	=72	=72	=72	=72	=72	=72	=72
1r	.	1r	.	1r	.	1N	.	drums	.	138.348	N.C.
=73	=73	=73	=73	=73	=73	=73	=73	=73	=73	=73	=73
1r	.	1r	.	1r	.	1N	.	drums	.	139.333	N.C.
=74	=74	=74	=74	=74	=74	=74	=74	=74	=74	=74	=74
*>Letter>A	*>Letter>A	*>Letter>A	*>Letter>A	*>Letter>A	*>Letter>A	*>Letter>A	*>Letter>A	*>Letter>A	*>Letter>A	*>Letter>A	*>Letter>A
*>Label>Verse	*>Label>Verse	*>Label>Verse	*>Label>Verse	*>Label>Verse	*>Label>Verse	*>Label>Verse	*>Label>Verse	*>Label>Verse	*>Label>Verse	*>Label>Verse	*>Label>Verse
4r	.	8.d-	Ooh!	8r	.	2A-M	newline	voice	.	144.256	A-:1
.	.	.	.	[8AA-	Bom,	.	.	.	.	.	.
.	.	16e-	_	.	.	.	.	.	.	.	.
8f	Don-	4r	.	16AA-]	_	.	.	.	.	.	.
.	.	.	.	8.AA-	bom,	.	.	.	.	.	.
16F	-nie	.	.	.	.	.	.	.	.	.	.
[16c	D's	.	.	.	.	.	.	.	.	.	.
16c]	_	2r	.	8.BB-	bom,	2B-m	.	.	.	145.249	B-:1
8e-	on	.	.	.	.	.	.	.	.	.	.
16e-	the	.	.	[16BB-	bom,	.	.	.	.	.	.
8.f	back-	.	.	16BB-]	_	.	.	.	E	.	.
.	.	.	.	8.BB-	bom,	.	.	.	.	.	.
16c	-up,	.	.	.	.	.	.	.	.	.	.
=75	=75	=75	=75	=75	=75	=75	=75	=75	=75	=75	=75
8r	.	1r	.	8r	.	2G-M	.	voice	.	146.243	G-:1
[8f	drug	.	.	[8GG-	bom,	.	.	.	.	.	.
16f]	_	.	.	16GG-]	_	.	.	.	.	.	.
16g	free,	.	.	8.GG-	bom,	.	.	.	.	.	.
8r	.	.	.	.	.	.	.	.	.	.	.
16r	.	.	.	8.AA-	bom,	2A-M	.	.	.	147.236	A-:1
16e-	so	.	.	.	.	.	.	.	.	.	.
16e-	put	.	.	.	.	.	.	.	.	.	.
16e-	the	.	.	[16AA-	bom,	.	.	.	.	.	.
8.f	crack	.	.	16AA-]	_	.	.	.	E	.	.
.	.	.	.	8.AA-	bom.	.	.	.	.	.	.
16c	up!	.	.	.	.	.	.	.	.	.	.
=76	=76	=76	=76	=76	=76	=76	=76	=76	=76	=76	=76
8r	.	8.d-	Ooh!	8r	.	2A-M	.	voice	.	148.23	A-:1
8c	No	.	.	[8AA-	Bom,	.	.	.	.	.	.
.	.	16e-	_	.	.	.	.	.	.	.	.
8e-	need	4r	.	16AA-]	_	.	.	.	F	.	.
.	.	.	.	8.AA-	bom,	.	.	.	.	.	.
16d-	for	.	.	.	.	.	.	.	.	.	.
[16e-	speed,	.	.	.	.	.	.	.	F	.	.
16e-]	_	2r	.	8.BB-	bom,	2B-m	.	.	.	149.223	B-:1
8d-	I'm	.	.	.	.	.	.	.	.	.	.
[16e-	an	.	.	[16BB-	bom,	.	.	.	.	.	.
16e-]	_	.	.	16BB-]	_	.	.	.	.	.	.
8.c	ti	.	.	8.BB-	bom,	.	.	.	.	.	.
=77	=77	=77	=77	=77	=77	=77	=77	=77	=77	=77	=77
16f	D-	1r	.	8r	.	2G-M	.	voice	.	150.216	G-:1
16e-	-R	.	.	.	.	.	.	.	.	.	.
16r	.	.	.	[8GG-	bom,	.	.	.	.	.	.
16e-	U-	.	.	.	.	.	.	.	.	.	.
16r	.	.	.	16GG-]	_	.	.	.	.	.	.
16e-	-G-	.	.	8.GG-	bom,	.	.	.	F	.	.
16r	.	.	.	.	.	.	.	.	.	.	.
16e-	-G-	.	.	.	.	.	.	.	F	.	.
16r	.	.	.	8.AA-	bom,	2A-M	.	.	.	151.21	A-:1
16c	-I-	.	.	.	.	.	.	.	.	.	.
16r	.	.	.	.	.	.	.	.	.	.	.
16e-	-E	.	.	[16AA-	bom,	.	.	.	F	.	.
16r	.	.	.	16AA-]	_	.	.	.	.	.	.
8.c	my	.	.	8.AA-	bom.	.	.	.	.	.	.
=78	=78	=78	=78	=78	=78	=78	=78	=78	=78	=78	=78
16f	bo-	8.d-	Ooh!	1r	.	2A-M	newline	voice	.	152.203	A-:1
16f	-dy	.	.	.	.	.	.	.	.	.	.
8F	is	.	.	.	.	.	.	.	.	.	.
.	.	16e-	_	.	.	.	.	.	.	.	.
8.f	heal-	4r	.	.	.	.	.	.	(G	.	.
16F	-thy,	.	.	.	.	.	.	.	g)	.	.
8r	.	2r	.	.	.	2B-m	.	.	.	153.182	B-:1
16f	my	.	.	.	.	.	.	.	.	.	.
[16f	rhymes	.	.	.	.	.	.	.	.	.	.
16f]	_	.	.	.	.	.	.	.	.	.	.
8e-	make	.	.	.	.	.	.	.	.	.	.
16c	me	.	.	.	.	.	.	.	.	.	.
=79	=79	=79	=79	=79	=79	=79	=79	=79	=79	=79	=79
8.e-	weal-	1r	.	1r	.	2G-M	.	voice	(G	154.161	G-:1
16F	-thy,	.	.	.	.	.	.	.	g)	.	.
8r	.	.	.	.	.	.	.	.	.	.	.
16c	and	.	.	.	.	.	.	.	.	.	.
16c	the	.	.	.	.	.	.	.	.	.	.
16e-	Fun-	.	.	.	.	2A-M	.	.	.	155.14	A-:1
16e-	-ky	.	.	.	.	.	.	.	.	.	.
8c	Bunch	.	.	.	.	.	.	.	.	.	.
8.e-	helps	.	.	.	.	.	.	.	(G	.	.
16F	me	.	.	.	.	.	.	.	g)	.	.
=80	=80	=80	=80	=80	=80	=80	=80	=80	=80	=80	=80
16r	.	8.d-	Ooh!	1r	.	2A-M	.	voice	.	156.119	A-:1
16d-	to	.	.	.	.	.	.	.	.	.	.
8f	bring	.	.	.	.	.	.	.	.	.	.
.	.	16e-	_	.	.	.	.	.	.	.	.
6e-	you	4r	.	.	.	.	.	.	.	.	.
12c	a	.	.	.	.	.	.	.	.	.	.
12e-	show	2r	.	.	.	2B-m	.	.	.	157.098	B-:1
12e-	with	.	.	.	.	.	.	.	.	.	.
12c	no	.	.	.	.	.	.	.	.	.	.
12e-	in-	.	.	.	.	.	.	.	.	.	.
12e-	-tox-	.	.	.	.	.	.	.	.	.	.
12c	-i-	.	.	.	.	.	.	.	.	.	.
=81	=81	=81	=81	=81	=81	=81	=81	=81	=81	=81	=81
8e-	-ca-	1r	.	1r	.	2G-M	.	voice	(A	158.077	G-:1
8e-	-tion,	.	.	.	.	.	.	.	a)	.	.
16r	.	.	.	.	.	.	.	.	.	.	.
16c	so	.	.	.	.	.	.	.	.	.	.
16g-	come	.	.	.	.	.	.	.	.	.	.
[16g-	on,	.	.	.	.	.	.	.	.	.	.
8g-]	_	.	.	.	.	2A-M	.	.	.	159.057	A-:1
16r	.	.	.	.	.	.	.	.	.	.	.
[16e-	feel	.	.	.	.	.	.	.	.	.	.
16e-]	_	.	.	.	.	.	.	.	.	.	.
16c	the	.	.	.	.	.	.	.	.	.	.
8e-	vi-	.	.	.	.	.	.	.	.	.	.
=82	=82	=82	=82	=82	=82	=82	=82	=82	=82	=82	=82
*>Letter>B	*>Letter>B	*>Letter>B	*>Letter>B	*>Letter>B	*>Letter>B	*>Letter>B	*>Letter>B	*>Letter>B	*>Letter>B	*>Letter>B	*>Letter>B
*>Label>Prechorus	*>Label>Prechorus	*>Label>Prechorus	*>Label>Prechorus	*>Label>Prechorus	*>Label>Prechorus	*>Label>Prechorus	*>Label>Prechorus	*>Label>Prechorus	*>Label>Prechorus	*>Label>Prechorus	*>Label>Prechorus
8c	-bra-	1r	.	1r	.	2A-M	newline	voice	(A	160.036	A-:maj
8F	-tion!	.	.	.	.	.	.	.	a)	.	.
4r	.	.	.	.	.	.	.	.	.	.	.
4r	.	.	.	.	.	2B-m	.	.	.	161.025	B-:min/b7
8r	.	.	.	.	.	.	.	.	.	.	.
[8C-	Yeah!	.	.	.	.	.	.	.	.	.	.
=83	=83	=83	=83	=83	=83	=83	=83	=83	=83	=83	=83
8C-]	_	1r	.	1r	.	2G-M	.	voice	.	162.014	G-:maj
8r	.	.	.	.	.	.	.	.	.	.	.
4r	.	.	.	.	.	.	.	.	.	.	.
4r	.	.	.	.	.	2A-M	.	.	.	163.003	A-:maj
8r	.	.	.	.	.	.	.	.	.	.	.
16BB-	Can	.	.	.	.	.	.	.	.	.	.
16BB-	you	.	.	.	.	.	.	.	.	.	.
=84	=84	=84	=84	=84	=84	=84	=84	=84	=84	=84	=84
16D	feel	1r	.	1r	.	2A-M	.	voice	.	163.993	A-:maj
16D	it,	.	.	.	.	.	.	.	.	.	.
16D	ba-	.	.	.	.	.	.	.	.	.	.
16D	-by?	.	.	.	.	.	.	.	.	.	.
4r	.	.	.	.	.	.	.	.	.	.	.
4r	.	.	.	.	.	2B-m	.	.	.	164.982	B-:min/b7
8r	.	.	.	.	.	.	.	.	.	.	.
8D	I	.	.	.	.	.	.	.	.	.	.
=85	=85	=85	=85	=85	=85	=85	=85	=85	=85	=85	=85
8C	can,	2r	.	1r	.	2G-M	.	voice	.	165.971	G-:maj
8AA-	too.	.	.	.	.	.	.	.	.	.	.
4r	.	.	.	.	.	.	.	.	.	.	.
2r	.	8r	.	.	.	2A-M	.	.	.	166.961	A-:maj
.	.	8a-	It's	.	.	.	.	.	.	.	.
.	.	8b-	such	.	.	.	.	.	.	.	.
.	.	8dd-	a	.	.	.	.	.	.	.	.
=86	=86	=86	=86	=86	=86	=86	=86	=86	=86	=86	=86
*>Letter>B	*>Letter>B	*>Letter>B	*>Letter>B	*>Letter>B	*>Letter>B	*>Letter>B	*>Letter>B	*>Letter>B	*>Letter>B	*>Letter>B	*>Letter>B
*>Label>Chorus	*>Label>Chorus	*>Label>Chorus	*>Label>Chorus	*>Label>Chorus	*>Label>Chorus	*>Label>Chorus	*>Label>Chorus	*>Label>Chorus	*>Label>Chorus	*>Label>Chorus	*>Label>Chorus
1r	.	8r	.	8r	.	2A-M	newline	voice	.	167.95	A-:maj
.	.	8ff	good	[8AA-	Bom,	.	.	.	.	.	.
.	.	8r	.	16AA-]	_	.	.	.	.	.	.
.	.	.	.	8.AA-	bom,	.	.	.	.	.	.
.	.	8b-	vi-	.	.	.	.	.	.	.	.
.	.	8b-	-bra-	8.BB-	bom,	2B-mm	.	.	(A	168.937	B-:min7
.	.	8b-	-tion!	.	.	.	.	.	a)	.	.
.	.	.	.	[16BB-	bom,	.	.	.	.	.	.
.	.	8dd-	_	16BB-]	_	.	.	.	.	.	.
.	.	.	.	8.BB-	bom,	.	.	.	.	.	.
.	.	8r	.	.	.	.	.	.	.	.	.
=87	=87	=87	=87	=87	=87	=87	=87	=87	=87	=87	=87
1r	.	2r	.	8r	.	2G-M	.	voice	.	169.924	G-:maj
.	.	.	.	[8GG-	bom,	.	.	.	.	.	.
.	.	.	.	16GG-]	_	.	.	.	.	.	.
.	.	.	.	8.GG-	bom,	.	.	.	.	.	.
.	.	8r	.	8.AA-	bom,	2A-M	.	.	.	170.91	A-:maj
.	.	8a-	It's	.	.	.	.	.	.	.	.
.	.	.	.	[16AA-	bom,	.	.	.	.	.	.
.	.	8b-	such	16AA-]	_	.	.	.	.	.	.
.	.	.	.	8.AA-	bom.	.	.	.	.	.	.
.	.	8dd-	a	.	.	.	.	.	.	.	.
=88	=88	=88	=88	=88	=88	=88	=88	=88	=88	=88	=88
1r	.	8r	.	8r	.	2A-M	.	voice	.	171.897	A-:maj
.	.	[8ee	sweet	[8AA-	Bom,	.	.	.	.	.	.
.	.	8ee]	_	16AA-]	_	.	.	.	.	.	.
.	.	.	.	8.AA-	bom,	.	.	.	.	.	.
.	.	[8ee-	_	.	.	.	.	.	.	.	.
.	.	6ee-]	_	8.BB-	bom,	2B-mm	.	.	.	172.884	B-:min7
.	.	6dd-	sen-	.	.	.	.	.	.	.	.
.	.	.	.	[16BB-	bom,	.	.	.	.	.	.
.	.	.	.	16BB-]	_	.	.	.	.	.	.
.	.	.	.	8.BB-	bom,	.	.	.	.	.	.
.	.	6b-	-sa-	.	.	.	.	.	(A	.	.
=89	=89	=89	=89	=89	=89	=89	=89	=89	=89	=89	=89
1r	.	16b-	-tion!	8r	.	2G-M	.	voice	a)	173.871	G-:maj
.	.	16a-	_	.	.	.	.	.	.	.	.
.	.	16b-	_	[8GG-	bom,	.	.	.	.	.	.
.	.	[16dd-	_	.	.	.	.	.	.	.	.
.	.	8dd-]	_	16GG-]	_	.	.	.	.	.	.
.	.	.	.	8.GG-	bom,	.	.	.	.	.	.
.	.	8ee-	_	.	.	.	.	.	.	.	.
.	.	8r	.	8.AA-	bom,	2A-M	.	.	.	174.858	A-:maj
.	.	8a-	It's	.	.	.	.	.	.	.	.
.	.	.	.	[16AA-	bom,	.	.	.	.	.	.
.	.	8b-	such	16AA-]	_	.	.	.	.	.	.
.	.	.	.	8.AA-	bom.	.	.	.	.	.	.
.	.	8dd-	a	.	.	.	.	.	.	.	.
=90	=90	=90	=90	=90	=90	=90	=90	=90	=90	=90	=90
1r	.	8r	.	8r	.	2A-M	newline	voice	.	175.845	A-:maj
.	.	8ff	good	[8AA-	Bom,	.	.	.	.	.	.
.	.	8r	.	16AA-]	_	.	.	.	.	.	.
.	.	.	.	8.AA-	bom,	.	.	.	.	.	.
.	.	8b-	vi-	.	.	.	.	.	.	.	.
.	.	8b-	-bra-	8.BB-	bom,	2B-mm	.	.	.	176.831	B-:min7
.	.	8b-	-tion!	.	.	.	.	.	.	.	.
.	.	.	.	[16BB-	bom,	.	.	.	.	.	.
.	.	8dd-	_	16BB-]	_	.	.	.	.	.	.
.	.	.	.	8.BB-	bom,	.	.	.	.	.	.
.	.	8r	.	.	.	.	.	.	.	.	.
=91	=91	=91	=91	=91	=91	=91	=91	=91	=91	=91	=91
1r	.	2r	.	8r	.	2G-M	.	voice	.	177.817	G-:maj
.	.	.	.	[8GG-	bom,	.	.	.	.	.	.
.	.	.	.	16GG-]	_	.	.	.	.	.	.
.	.	.	.	8.GG-	bom,	.	.	.	.	.	.
.	.	8r	.	8.AA-	bom,	2A-M	.	.	.	178.803	A-:maj
.	.	8a-	It's	.	.	.	.	.	.	.	.
.	.	.	.	[16AA-	bom,	.	.	.	.	.	.
.	.	8b-	such	16AA-]	_	.	.	.	.	.	.
.	.	.	.	8.AA-	bom.	.	.	.	.	.	.
.	.	8dd-	a	.	.	.	.	.	.	.	.
=92	=92	=92	=92	=92	=92	=92	=92	=92	=92	=92	=92
1r	.	8r	.	8r	.	2A-M	.	voice	.	179.789	A-:maj
.	.	[8ee	sweet	[8AA-	Bom,	.	.	.	.	.	.
.	.	8ee]	_	16AA-]	_	.	.	.	.	.	.
.	.	.	.	8.AA-	bom,	.	.	.	.	.	.
.	.	[8ee-	_	.	.	.	.	.	.	.	.
.	.	6ee-]	_	8.BB-	bom,	2B-mm	.	.	.	180.775	B-:min7
.	.	6dd-	sen-	.	.	.	.	.	.	.	.
.	.	.	.	[16BB-	bom,	.	.	.	.	.	.
.	.	.	.	16BB-]	_	.	.	.	.	.	.
.	.	.	.	8.BB-	bom,	.	.	.	.	.	.
.	.	6b-	-sa-	.	.	.	.	.	.	.	.
=93	=93	=93	=93	=93	=93	=93	=93	=93	=93	=93	=93
1r	.	16b-	-tion!	8r	.	2G-M	.	voice	.	181.761	G-:maj
.	.	16a-	_	.	.	.	.	.	.	.	.
.	.	16b-	_	[8GG-	bom,	.	.	.	.	.	.
.	.	[16dd-	_	.	.	.	.	.	.	.	.
.	.	8dd-]	_	16GG-]	_	.	.	.	.	.	.
.	.	.	.	8.GG-	bom,	.	.	.	.	.	.
.	.	8ee-	_	.	.	.	.	.	.	.	.
.	.	2r	.	8.AA-	bom,	2A-M	.	.	.	182.747	A-:maj
.	.	.	.	[16AA-	bom,	.	.	.	.	.	.
.	.	.	.	16AA-]	_	.	.	.	.	.	.
.	.	.	.	8.AA-	bom.	.	.	.	.	.	.
=94	=94	=94	=94	=94	=94	=94	=94	=94	=94	=94	=94
*>Letter>A	*>Letter>A	*>Letter>A	*>Letter>A	*>Letter>A	*>Letter>A	*>Letter>A	*>Letter>A	*>Letter>A	*>Letter>A	*>Letter>A	*>Letter>A
*>Label>Verse	*>Label>Verse	*>Label>Verse	*>Label>Verse	*>Label>Verse	*>Label>Verse	*>Label>Verse	*>Label>Verse	*>Label>Verse	*>Label>Verse	*>Label>Verse	*>Label>Verse
8f	Now,	1r	.	1r	.	2A-M	newline	voice	.	183.734	A-:maj
16r	.	.	.	.	.	.	.	.	.	.	.
16B-	the	.	.	.	.	.	.	.	.	.	.
8e	time	.	.	.	.	.	.	.	.	.	.
16d-	has	.	.	.	.	.	.	.	.	.	.
[16e	come	.	.	.	.	.	.	.	.	.	.
16e]	_	.	.	.	.	2B-m	.	.	.	184.721	B-:min/b7
16e	for	.	.	.	.	.	.	.	.	.	.
16e	you	.	.	.	.	.	.	.	.	.	.
16d-	to	.	.	.	.	.	.	.	.	.	.
16e	get	.	.	.	.	.	.	.	H	.	.
16d-	up!	.	.	.	.	.	.	.	.	.	.
16r	.	.	.	.	.	.	.	.	.	.	.
16d-	The	.	.	.	.	.	.	.	.	.	.
=95	=95	=95	=95	=95	=95	=95	=95	=95	=95	=95	=95
12e-	rest	1r	.	1r	.	2G-M	.	voice	.	185.709	G-:maj
12e-	had	.	.	.	.	.	.	.	.	.	.
12d-	you	.	.	.	.	.	.	.	.	.	.
16e-	fed	.	.	.	.	.	.	.	H	.	.
16d-	up,	.	.	.	.	.	.	.	.	.	.
16r	.	.	.	.	.	.	.	.	.	.	.
16d-	but	.	.	.	.	.	.	.	.	.	.
16e	yo,	.	.	.	.	2A-M	.	.	.	186.696	A-:maj
16e	I	.	.	.	.	.	.	.	.	.	.
8B-	won't	.	.	.	.	.	.	.	.	.	.
16d-	let	.	.	.	.	.	.	.	H	.	.
16d-	up,	.	.	.	.	.	.	.	.	.	.
8r	.	.	.	.	.	.	.	.	.	.	.
=96	=96	=96	=96	=96	=96	=96	=96	=96	=96	=96	=96
16r	.	1r	.	1r	.	2A-M	.	voice	.	187.684	A-:maj
8f	On	.	.	.	.	.	.	.	.	.	.
16e-	the	.	.	.	.	.	.	.	.	.	.
16e-	rhy-	.	.	.	.	.	.	.	.	.	.
16e-	-thm	.	.	.	.	.	.	.	.	.	.
16d-	and	.	.	.	.	.	.	.	.	.	.
[16e-	rhyme	.	.	.	.	.	.	.	B	.	.
16e-]	_	.	.	.	.	2B-m	.	.	.	188.671	B-:min/b7
8e-	that's	.	.	.	.	.	.	.	.	.	.
16d-	de-	.	.	.	.	.	.	.	.	.	.
8e-	-signed	.	.	.	.	.	.	.	B	.	.
8d-	to	.	.	.	.	.	.	.	.	.	.
=97	=97	=97	=97	=97	=97	=97	=97	=97	=97	=97	=97
16e-	make	1r	.	1r	.	2G-M	.	voice	.	189.659	G-:maj
16e-	your	.	.	.	.	.	.	.	.	.	.
16d-	be-	.	.	.	.	.	.	.	.	.	.
[16e	-hind	.	.	.	.	.	.	.	B	.	.
16e]	_	.	.	.	.	.	.	.	.	.	.
8e-	move	.	.	.	.	.	.	.	.	.	.
16f	to	.	.	.	.	.	.	.	.	.	.
16e-	what	.	.	.	.	2A-M	.	.	.	190.647	A-:maj
16e-	I'm	.	.	.	.	.	.	.	.	.	.
16d-	in-	.	.	.	.	.	.	.	.	.	.
[16f	-clined	.	.	.	.	.	.	.	B	.	.
16f]	_	.	.	.	.	.	.	.	.	.	.
8B-	to!	.	.	.	.	.	.	.	.	.	.
16r	.	.	.	.	.	.	.	.	.	.	.
=98	=98	=98	=98	=98	=98	=98	=98	=98	=98	=98	=98
8r	.	1r	.	1r	.	2A-M	newline	voice	.	191.634	A-:maj
8f	Pure	.	.	.	.	.	.	.	.	.	.
8g-	hip-	.	.	.	.	.	.	.	.	.	.
8e-	-hop,	.	.	.	.	.	.	.	.	.	.
8r	.	.	.	.	.	2B-mm	.	.	.	192.622	B-:min7
8f	no	.	.	.	.	.	.	.	.	.	.
16e-	sell-	.	.	.	.	.	.	.	(I	.	.
16e-	-out,	.	.	.	.	.	.	.	i)	.	.
16r	.	.	.	.	.	.	.	.	.	.	.
16d-	if	.	.	.	.	.	.	.	.	.	.
=99	=99	=99	=99	=99	=99	=99	=99	=99	=99	=99	=99
16f	you	1r	.	1r	.	2G-M	.	voice	.	193.609	G-:maj
16f	ain't	.	.	.	.	.	.	.	.	.	.
8r	.	.	.	.	.	.	.	.	.	.	.
16g-	in	.	.	.	.	.	.	.	J	.	.
16f	it	.	.	.	.	.	.	.	.	.	.
16e-	to	.	.	.	.	.	.	.	.	.	.
16g-	win	.	.	.	.	.	.	.	J	.	.
16g-	it,	.	.	.	.	2A-M	.	.	.	194.597	A-:maj
16F	then	.	.	.	.	.	.	.	.	.	.
16A-	get	.	.	.	.	.	.	.	.	.	.
16F	the	.	.	.	.	.	.	.	.	.	.
16e-	hell	.	.	.	.	.	.	.	(I	.	.
16F	out!	.	.	.	.	.	.	.	i)	.	.
8r	.	.	.	.	.	.	.	.	.	.	.
=100	=100	=100	=100	=100	=100	=100	=100	=100	=100	=100	=100
8e-	I	1r	.	1r	.	2A-M	.	voice	.	195.584	A-:maj
16c	com-	.	.	.	.	.	.	.	.	.	.
[16f	-mand	.	.	.	.	.	.	.	K	.	.
16f]	_	.	.	.	.	.	.	.	.	.	.
16e-	you	.	.	.	.	.	.	.	.	.	.
16c	to	.	.	.	.	.	.	.	.	.	.
[16f	dance,	.	.	.	.	.	.	.	K	.	.
16f]	_	.	.	.	.	2B-mm	.	.	.	196.572	B-:min7
16c	I	.	.	.	.	.	.	.	.	.	.
16A-	wan-	.	.	.	.	.	.	.	.	.	.
16F	-na	.	.	.	.	.	.	.	.	.	.
16e-	see	.	.	.	.	.	.	.	.	.	.
16c	mo-	.	.	.	.	.	.	.	.	.	.
8F	-ti-	.	.	.	.	.	.	.	.	.	.
=101	=101	=101	=101	=101	=101	=101	=101	=101	=101	=101	=101
8f	-va-	1r	.	1r	.	2G-M	.	voice	(A	197.559	G-:maj
8c	-tion,	.	.	.	.	.	.	.	a)	.	.
16r	.	.	.	.	.	.	.	.	.	.	.
16g-	so	.	.	.	.	.	.	.	.	.	.
16g-	come	.	.	.	.	.	.	.	.	.	.
[16g-	on,	.	.	.	.	.	.	.	.	.	.
16g-]	_	.	.	.	.	2A-M	.	.	.	198.546	A-:maj
8e-	now,	.	.	.	.	.	.	.	.	.	.
[16g-	feel	.	.	.	.	.	.	.	.	.	.
16g-]	_	.	.	.	.	.	.	.	.	.	.
16d-	the	.	.	.	.	.	.	.	.	.	.
8e-	vi-	.	.	.	.	.	.	.	.	.	.
=102	=102	=102	=102	=102	=102	=102	=102	=102	=102	=102	=102
*>Letter>B	*>Letter>B	*>Letter>B	*>Letter>B	*>Letter>B	*>Letter>B	*>Letter>B	*>Letter>B	*>Letter>B	*>Letter>B	*>Letter>B	*>Letter>B
*>Label>Solo	*>Label>Solo	*>Label>Solo	*>Label>Solo	*>Label>Solo	*>Label>Solo	*>Label>Solo	*>Label>Solo	*>Label>Solo	*>Label>Solo	*>Label>Solo	*>Label>Solo
8e-	-bra-	1r	.	1r	.	2A-M	newline	piano	(A	199.534	A-:maj
8F	-tion!	.	.	.	.	.	.	.	a)	.	.
4r	.	.	.	.	.	.	.	.	.	.	.
2r	.	.	.	.	.	2B-mm	.	.	.	200.522	B-:min7
=103	=103	=103	=103	=103	=103	=103	=103	=103	=103	=103	=103
1r	.	1r	.	1r	.	2G-M	.	piano	.	201.511	G-:maj
.	.	.	.	.	.	2A-M	.	.	.	202.499	A-:maj
=104	=104	=104	=104	=104	=104	=104	=104	=104	=104	=104	=104
1r	.	1r	.	1r	.	2A-M	.	piano	.	203.487	A-:maj
.	.	.	.	.	.	2B-mm	.	.	.	204.476	B-:min7
=105	=105	=105	=105	=105	=105	=105	=105	=105	=105	=105	=105
1r	.	1r	.	1r	.	2G-M	.	piano	.	205.464	G-:maj
.	.	.	.	.	.	2A-M	.	.	.	206.453	A-:maj
=106	=106	=106	=106	=106	=106	=106	=106	=106	=106	=106	=106
1r	.	1r	.	1r	.	2A-M	newline	piano	.	207.441	A-:maj
.	.	.	.	.	.	2B-mm	.	.	.	208.425	B-:min7
=107	=107	=107	=107	=107	=107	=107	=107	=107	=107	=107	=107
1r	.	1r	.	1r	.	2G-M	.	piano	.	209.409	G-:maj
.	.	.	.	.	.	2A-M	.	.	.	210.393	A-:maj
=108	=108	=108	=108	=108	=108	=108	=108	=108	=108	=108	=108
1r	.	1r	.	1r	.	2A-M	.	piano	.	211.376	A-:maj
.	.	.	.	.	.	2B-mm	.	.	.	212.36	B-:min7
=109	=109	=109	=109	=109	=109	=109	=109	=109	=109	=109	=109
1r	.	2r	.	1r	.	2G-M	.	piano	.	213.344	G-:maj
.	.	8r	.	.	.	2A-M	.	.	.	214.328	A-:maj
.	.	8a-	It's	.	.	.	.	.	.	.	.
.	.	8b-	such	.	.	.	.	.	.	.	.
.	.	8dd-	a	.	.	.	.	.	.	.	.
=110	=110	=110	=110	=110	=110	=110	=110	=110	=110	=110	=110
*>Letter>B	*>Letter>B	*>Letter>B	*>Letter>B	*>Letter>B	*>Letter>B	*>Letter>B	*>Letter>B	*>Letter>B	*>Letter>B	*>Letter>B	*>Letter>B
*>Label>Chorus	*>Label>Chorus	*>Label>Chorus	*>Label>Chorus	*>Label>Chorus	*>Label>Chorus	*>Label>Chorus	*>Label>Chorus	*>Label>Chorus	*>Label>Chorus	*>Label>Chorus	*>Label>Chorus
1r	.	8r	.	1r	.	2A-M	newline	voice	.	215.312	A-:maj
.	.	8ff	good	.	.	.	.	.	.	.	.
.	.	8r	.	.	.	.	.	.	.	.	.
.	.	8b-	vi-	.	.	.	.	.	.	.	.
.	.	8b-	-bra-	.	.	2B-m	.	.	(A	216.3	B-:min/b7
.	.	8b-	-tion!	.	.	.	.	.	a)	.	.
.	.	8dd-	_	.	.	.	.	.	.	.	.
.	.	8r	.	.	.	.	.	.	.	.	.
=111	=111	=111	=111	=111	=111	=111	=111	=111	=111	=111	=111
16g-	Come	2r	.	1r	.	2G-M	.	voice	.	217.287	G-:maj
8c	on,	.	.	.	.	.	.	.	.	.	.
16g-	come	.	.	.	.	.	.	.	.	.	.
8c	on,	.	.	.	.	.	.	.	.	.	.
16g-	come	.	.	.	.	.	.	.	.	.	.
[16c	on!	.	.	.	.	.	.	.	.	.	.
8c]	_	8r	.	.	.	2A-M	.	.	.	218.275	A-:maj
8r	.	8a-	It's	.	.	.	.	.	.	.	.
4r	.	8b-	such	.	.	.	.	.	.	.	.
.	.	8dd-	a	.	.	.	.	.	.	.	.
=112	=112	=112	=112	=112	=112	=112	=112	=112	=112	=112	=112
1r	.	8r	.	1r	.	2A-M	.	voice	.	219.263	A-:maj
.	.	[8ee	sweet	.	.	.	.	.	.	.	.
.	.	8ee]	_	.	.	.	.	.	.	.	.
.	.	[8ee-	_	.	.	.	.	.	.	.	.
.	.	6ee-]	_	.	.	2B-m	.	.	.	220.25	B-:min/b7
.	.	6dd-	sen-	.	.	.	.	.	.	.	.
.	.	6b-	-sa-	.	.	.	.	.	(A	.	.
=113	=113	=113	=113	=113	=113	=113	=113	=113	=113	=113	=113
2r	.	16b-	-tion!	1r	.	2G-M	.	voice	a)	221.238	G-:maj
.	.	16a-	_	.	.	.	.	.	.	.	.
.	.	16b-	_	.	.	.	.	.	.	.	.
.	.	[16dd-	_	.	.	.	.	.	.	.	.
.	.	8dd-]	_	.	.	.	.	.	.	.	.
.	.	8ee-	_	.	.	.	.	.	.	.	.
8g-	Feel	8r	.	.	.	2A-M	.	.	.	222.226	A-:maj
8G-	it,	8a-	It's	.	.	.	.	.	.	.	.
8g-	feel	8b-	such	.	.	.	.	.	.	.	.
8G-	it!	8dd-	a	.	.	.	.	.	.	.	.
=114	=114	=114	=114	=114	=114	=114	=114	=114	=114	=114	=114
1r	.	8r	.	1r	.	2A-M	newline	voice	.	223.213	A-:maj
.	.	8ff	good	.	.	.	.	.	.	.	.
.	.	8r	.	.	.	.	.	.	.	.	.
.	.	8b-	vi-	.	.	.	.	.	.	.	.
.	.	8b-	-bra-	.	.	2B-m	.	.	.	224.197	B-:min/b7
.	.	8b-	-tion!	.	.	.	.	.	.	.	.
.	.	8dd-	_	.	.	.	.	.	.	.	.
.	.	8r	.	.	.	.	.	.	.	.	.
=115	=115	=115	=115	=115	=115	=115	=115	=115	=115	=115	=115
1r	.	2r	.	1r	.	2G-M	.	voice	.	225.18	G-:maj
.	.	8r	.	.	.	2A-M	.	.	.	226.164	A-:maj
.	.	8a-	It's	.	.	.	.	.	.	.	.
.	.	8b-	such	.	.	.	.	.	.	.	.
.	.	8dd-	a	.	.	.	.	.	.	.	.
=116	=116	=116	=116	=116	=116	=116	=116	=116	=116	=116	=116
1r	.	8r	.	1r	.	2A-M	.	voice	.	227.147	A-:maj
.	.	[8ee	sweet	.	.	.	.	.	.	.	.
.	.	8ee]	_	.	.	.	.	.	.	.	.
.	.	[8ee-	_	.	.	.	.	.	.	.	.
.	.	6ee-]	_	.	.	2B-m	.	.	.	228.131	B-:min/b7
.	.	6dd-	sen-	.	.	.	.	.	.	.	.
.	.	6b-	-sa-	.	.	.	.	.	.	.	.
=117	=117	=117	=117	=117	=117	=117	=117	=117	=117	=117	=117
4r	.	16b-	-tion!	1r	.	2G-M	.	voice	.	229.114	G-:maj
.	.	16a-	_	.	.	.	.	.	.	.	.
.	.	16b-	_	.	.	.	.	.	.	.	.
.	.	[16dd-	_	.	.	.	.	.	.	.	.
8.r	.	8dd-]	_	.	.	.	.	.	.	.	.
.	.	8ee-	_	.	.	.	.	.	.	.	.
[16g-	Feel	.	.	.	.	.	.	.	.	.	.
16g-]	_	8r	.	.	.	2A-M	.	.	.	230.098	A-:maj
16B-	the	.	.	.	.	.	.	.	.	.	.
8c	vi-	8a-	It's	.	.	.	.	.	.	.	.
8d-	-bra-	8b-	such	.	.	.	.	.	.	.	.
8F	-tion!	8dd-	a	.	.	.	.	.	.	.	.
=118	=118	=118	=118	=118	=118	=118	=118	=118	=118	=118	=118
*>Letter>B	*>Letter>B	*>Letter>B	*>Letter>B	*>Letter>B	*>Letter>B	*>Letter>B	*>Letter>B	*>Letter>B	*>Letter>B	*>Letter>B	*>Letter>B
*>Label>Chorus	*>Label>Chorus	*>Label>Chorus	*>Label>Chorus	*>Label>Chorus	*>Label>Chorus	*>Label>Chorus	*>Label>Chorus	*>Label>Chorus	*>Label>Chorus	*>Label>Chorus	*>Label>Chorus
1r	.	8r	.	8r	.	2A-M	newline	voice	.	231.081	A-:maj
.	.	8ff	good	[8AA-	Bom,	.	.	.	.	.	.
.	.	8r	.	16AA-]	_	.	.	.	.	.	.
.	.	.	.	8.AA-	bom,	.	.	.	.	.	.
.	.	8b-	vi-	.	.	.	.	.	.	.	.
.	.	8b-	-bra-	8.BB-	bom,	2B-mm	.	.	.	232.073	B-:min7
.	.	8b-	-tion!	.	.	.	.	.	.	.	.
.	.	.	.	[16BB-	bom,	.	.	.	.	.	.
.	.	8dd-	_	16BB-]	_	.	.	.	.	.	.
.	.	.	.	8.BB-	bom,	.	.	.	.	.	.
.	.	8r	.	.	.	.	.	.	.	.	.
=119	=119	=119	=119	=119	=119	=119	=119	=119	=119	=119	=119
1r	.	2r	.	8r	.	2G-M	.	voice	.	233.066	G-:maj
.	.	.	.	[8GG-	bom,	.	.	.	.	.	.
.	.	.	.	16GG-]	_	.	.	.	.	.	.
.	.	.	.	8.GG-	bom,	.	.	.	.	.	.
.	.	8r	.	8.AA-	bom,	2A-M	.	.	.	234.058	A-:maj
.	.	8a-	It's	.	.	.	.	.	.	.	.
.	.	.	.	[16AA-	bom,	.	.	.	.	.	.
.	.	8b-	such	16AA-]	_	.	.	.	.	.	.
.	.	.	.	8.AA-	bom.	.	.	.	.	.	.
.	.	8dd-	a	.	.	.	.	.	.	.	.
=120	=120	=120	=120	=120	=120	=120	=120	=120	=120	=120	=120
1r	.	8r	.	8r	.	2A-M	.	voice	.	235.05	A-:maj
.	.	[8ee	sweet	[8AA-	Bom,	.	.	.	.	.	.
.	.	8ee]	_	16AA-]	_	.	.	.	.	.	.
.	.	.	.	8.AA-	bom,	.	.	.	.	.	.
.	.	[8ee-	_	.	.	.	.	.	.	.	.
.	.	6ee-]	_	8.BB-	bom,	2B-mm	.	.	.	236.042	B-:min7
.	.	6dd-	sen-	.	.	.	.	.	.	.	.
.	.	.	.	[16BB-	bom,	.	.	.	.	.	.
.	.	.	.	16BB-]	_	.	.	.	.	.	.
.	.	.	.	8.BB-	bom,	.	.	.	.	.	.
.	.	6b-	-sa-	.	.	.	.	.	.	.	.
=121	=121	=121	=121	=121	=121	=121	=121	=121	=121	=121	=121
1r	.	16b-	-tion!	8r	.	2G-M	.	voice	.	237.035	G-:maj
.	.	16a-	_	.	.	.	.	.	.	.	.
.	.	16b-	_	[8GG-	bom,	.	.	.	.	.	.
.	.	[16dd-	_	.	.	.	.	.	.	.	.
.	.	8dd-]	_	16GG-]	_	.	.	.	.	.	.
.	.	.	.	8.GG-	bom,	.	.	.	.	.	.
.	.	8ee-	_	.	.	.	.	.	.	.	.
.	.	8r	.	8.AA-	bom,	2A-M	.	.	.	238.027	A-:maj
.	.	8a-	It's	.	.	.	.	.	.	.	.
.	.	.	.	[16AA-	bom,	.	.	.	.	.	.
.	.	8b-	such	16AA-]	_	.	.	.	.	.	.
.	.	.	.	8.AA-	bom.	.	.	.	.	.	.
.	.	8dd-	a	.	.	.	.	.	.	.	.
=122	=122	=122	=122	=122	=122	=122	=122	=122	=122	=122	=122
1r	.	8r	.	8r	.	2A-M	newline	voice	.	239.019	A-:maj
.	.	8ff	good	[8AA-	Bom,	.	.	.	.	.	.
.	.	8r	.	16AA-]	_	.	.	.	.	.	.
.	.	.	.	8.AA-	bom,	.	.	.	.	.	.
.	.	8b-	vi-	.	.	.	.	.	.	.	.
.	.	8b-	-bra-	8.BB-	bom,	2B-mm	.	.	.	240.003	B-:min7
.	.	8b-	-tion!	.	.	.	.	.	.	.	.
.	.	.	.	[16BB-	bom,	.	.	.	.	.	.
.	.	8dd-	_	16BB-]	_	.	.	.	.	.	.
.	.	.	.	8.BB-	bom,	.	.	.	.	.	.
.	.	8r	.	.	.	.	.	.	.	.	.
=123	=123	=123	=123	=123	=123	=123	=123	=123	=123	=123	=123
1r	.	2r	.	8r	.	2G-M	.	voice	.	240.986	G-:maj
.	.	.	.	[8GG-	bom,	.	.	.	.	.	.
.	.	.	.	16GG-]	_	.	.	.	.	.	.
.	.	.	.	8.GG-	bom,	.	.	.	.	.	.
.	.	8r	.	8.AA-	bom,	2A-M	.	.	.	241.97	A-:maj
.	.	8a-	It's	.	.	.	.	.	.	.	.
.	.	.	.	[16AA-	bom,	.	.	.	.	.	.
.	.	8b-	such	16AA-]	_	.	.	.	.	.	.
.	.	.	.	8.AA-	bom.	.	.	.	.	.	.
.	.	8dd-	a	.	.	.	.	.	.	.	.
=124	=124	=124	=124	=124	=124	=124	=124	=124	=124	=124	=124
1r	.	8r	.	8r	.	2A-M	.	voice	.	242.953	A-:maj
.	.	[8ee	sweet	[8AA-	Bom,	.	.	.	.	.	.
.	.	8ee]	_	16AA-]	_	.	.	.	.	.	.
.	.	.	.	8.AA-	bom,	.	.	.	.	.	.
.	.	[8ee-	_	.	.	.	.	.	.	.	.
.	.	6ee-]	_	8.BB-	bom,	2B-mm	.	.	.	243.937	B-:min7
.	.	6dd-	sen-	.	.	.	.	.	.	.	.
.	.	.	.	[16BB-	bom,	.	.	.	.	.	.
.	.	.	.	16BB-]	_	.	.	.	.	.	.
.	.	.	.	8.BB-	bom,	.	.	.	.	.	.
.	.	6b-	-sa-	.	.	.	.	.	.	.	.
=125	=125	=125	=125	=125	=125	=125	=125	=125	=125	=125	=125
1r	.	16b-	-tion!	8r	.	2G-M	.	voice	.	244.92	G-:maj
.	.	16a-	_	.	.	.	.	.	.	.	.
.	.	16b-	_	[8GG-	bom,	.	.	.	.	.	.
.	.	[16dd-	_	.	.	.	.	.	.	.	.
.	.	8dd-]	_	16GG-]	_	.	.	.	.	.	.
.	.	.	.	8.GG-	bom,	.	.	.	.	.	.
.	.	8ee-	_	.	.	.	.	.	.	.	.
.	.	2r	.	8.AA-	bom,	2A-M	.	.	.	245.903	A-:maj
.	.	.	.	[16AA-	bom,	.	.	.	.	.	.
.	.	.	.	16AA-]	_	.	.	.	.	.	.
.	.	.	.	8.AA-	bom.	.	.	.	.	.	.
=126	=126	=126	=126	=126	=126	=126	=126	=126	=126	=126	=126
*>Letter>B2	*>Letter>B2	*>Letter>B2	*>Letter>B2	*>Letter>B2	*>Letter>B2	*>Letter>B2	*>Letter>B2	*>Letter>B2	*>Letter>B2	*>Letter>B2	*>Letter>B2
*>Label>Solo	*>Label>Solo	*>Label>Solo	*>Label>Solo	*>Label>Solo	*>Label>Solo	*>Label>Solo	*>Label>Solo	*>Label>Solo	*>Label>Solo	*>Label>Solo	*>Label>Solo
1r	.	1r	.	1r	.	2A-M	newline	piano	.	246.887	A-:maj
.	.	.	.	.	.	2B-mm	.	.	.	247.869	B-:min7
=127	=127	=127	=127	=127	=127	=127	=127	=127	=127	=127	=127
1r	.	1r	.	1r	.	2G-M	.	piano	.	248.852	G-:maj
.	.	.	.	.	.	2A-M	.	.	.	249.834	A-:maj
=128	=128	=128	=128	=128	=128	=128	=128	=128	=128	=128	=128
1r	.	1r	.	1r	.	2A-M	.	piano	.	250.816	A-:maj
.	.	.	.	.	.	2B-mm	.	.	.	251.799	B-:min7
=129	=129	=129	=129	=129	=129	=129	=129	=129	=129	=129	=129
1r	.	1r	.	1r	.	2G-M	.	piano	.	252.781	G-:maj
.	.	.	.	.	.	2A-M	.	.	.	253.764	A-:maj
=130	=130	=130	=130	=130	=130	=130	=130	=130	=130	=130	=130
1r	.	1r	.	1r	.	2A-M	newline	piano	.	254.746	A-:maj
.	.	.	.	.	.	2B-mm	.	.	.	255.736	B-:min7
=131	=131	=131	=131	=131	=131	=131	=131	=131	=131	=131	=131
1r	.	1r	.	1r	.	2G-M	.	piano	.	256.725	G-:maj
.	.	.	.	.	.	2A-M	.	.	.	257.715	A-:maj
=132	=132	=132	=132	=132	=132	=132	=132	=132	=132	=132	=132
1r	.	1r	.	1r	.	2A-M	.	piano	.	258.704	A-:maj
.	.	.	.	.	.	2B-mm	.	.	.	259.694	B-:min7
=133	=133	=133	=133	=133	=133	=133	=133	=133	=133	=133	=133
1r	.	1r	.	1r	.	2G-M	.	piano	.	260.683	G-:maj
.	.	.	.	.	.	2A-M	.	.	.	261.673	A-:maj
r;	.	r;	.	r;	.	1r;	.	r	.	262.663	N.C.
r;	.	r;	.	r;	.	1r;	.	r	.	268.841	N.C.
r;	.	r;	.	r;	.	1r;	.	r	.	269.558	N.C.
*-	*-	*-	*-	*-	*-	*-	*-	*-	*-	*-	*-
!!!BillboardChartDate: 1991/11/09, 1991/11/09
!!!BillboardPeak: 1, 1
!!!BillboardWeeksOnChart: 19, 19
!!!COC: Marky Mark
!!!ENC: Nathaniel Condit-Schultz
!!!EST: Awating manual error checking and editing.
!!!OTL: Good Vibrations
!!!RDF**chordsym: original McGill chord annotation + (implied pitch class set, with bass pitch in first position)
!!!RDF**harmony: **recip + pitch class of root + harmonic quality
!!!RDF**leadinstrument: original McGill primary instrumentation annotation
!!!RDF**phrase: newline = linebreak in original McGill transcription
!!!RDF**timestamp: McGill audio timestamp in seconds
!!!RDT: 2017/01/12/
!!!SampleActualRank: 31, 31
!!!SampleID#: 352, 503
!!!SampleTargetRank: 31, 30
